; Generated with Voxelizer 2
;; { "info": [
;;         { "toolhead": "Laser" },
;;         { "workflow": "laser cutting" },
;;         { "voxelizer_version": "v2.0.0-macOS-1-g90eaae" },
;;         { "voxel_size": 0.239999994635582 },
;;         { "printing_time": "22min 28s " },
;;         { "printer": "ZMorph VX" },
;;         { "material_gravity_x": "Center" },
;;         { "material_gravity_y": "Center" },
;;         { "material_size_x": 225.0 },
;;         { "material_size_y": 225.0 },
;;         { "material_size_z": 2.5 }
;;     ] }
G90
G0 X118.371 Y100.486 Z0.000 F1200.000
G0 X118.371 Y100.486 Z-0.000 F1200.000
G1 X118.371 Y100.486 Z-0.000 F480.000
G1 X132.304 Y90.363 Z-0.000 F480.000
G1 X126.982 Y73.983 Z-0.000 F480.000
G1 X109.759 Y73.983 Z-0.000 F480.000
G1 X104.437 Y90.363 Z-0.000 F480.000
G1 X118.371 Y100.486 Z-0.000 F480.000
G4 P10.000
G0 X118.371 Y100.486 Z3.000 F300.000
G0 X118.694 Y94.840 Z3.000 F1200.000
G0 X118.694 Y94.840 Z-0.000 F300.000
G1 X118.694 Y94.840 Z-0.000 F480.000
G1 X118.106 Y95.267 Z-0.000 F480.000
G1 X117.518 Y94.840 Z-0.000 F480.000
G1 X109.964 Y89.351 Z-0.000 F480.000
G1 X109.376 Y88.924 Z-0.000 F480.000
G1 X109.601 Y88.233 Z-0.000 F480.000
G1 X112.486 Y79.352 Z-0.000 F480.000
G1 X112.711 Y78.661 Z-0.000 F480.000
G1 X113.437 Y78.661 Z-0.000 F480.000
G1 X122.775 Y78.661 Z-0.000 F480.000
G1 X123.502 Y78.661 Z-0.000 F480.000
G1 X123.726 Y79.352 Z-0.000 F480.000
G1 X126.612 Y88.233 Z-0.000 F480.000
G1 X126.836 Y88.924 Z-0.000 F480.000
G1 X126.248 Y89.351 Z-0.000 F480.000
G1 X118.694 Y94.840 Z-0.000 F480.000
G4 P10.000
G0 X118.694 Y94.840 Z3.000 F300.000
G0 X127.663 Y76.079 Z3.000 F1200.000
G0 X127.663 Y76.079 Z-0.000 F300.000
G1 X127.663 Y76.079 Z-0.000 F480.000
G1 X121.906 Y73.983 Z-0.000 F480.000
G4 P10.000
G0 X121.906 Y73.983 Z3.000 F300.000
G0 X128.447 Y78.492 Z3.000 F1200.000
G0 X128.447 Y78.492 Z-0.000 F300.000
G1 X128.447 Y78.492 Z-0.000 F480.000
G1 X116.058 Y73.983 Z-0.000 F480.000
G4 P10.000
G0 X116.058 Y73.983 Z3.000 F300.000
G0 X129.231 Y80.906 Z3.000 F1200.000
G0 X129.231 Y80.906 Z-0.000 F300.000
G1 X129.231 Y80.906 Z-0.000 F480.000
G1 X123.560 Y78.842 Z-0.000 F480.000
G4 P10.000
G0 X123.560 Y78.842 Z3.000 F300.000
G0 X123.064 Y78.661 Z3.000 F1200.000
G0 X123.064 Y78.661 Z-0.000 F300.000
G1 X123.064 Y78.661 Z-0.000 F480.000
G1 X110.211 Y73.983 Z-0.000 F480.000
G4 P10.000
G0 X110.211 Y73.983 Z3.000 F300.000
G0 X130.016 Y83.320 Z3.000 F1200.000
G0 X130.016 Y83.320 Z-0.000 F300.000
G1 X130.016 Y83.320 Z-0.000 F480.000
G1 X124.345 Y81.256 Z-0.000 F480.000
G4 P10.000
G0 X124.345 Y81.256 Z3.000 F300.000
G0 X117.216 Y78.661 Z3.000 F1200.000
G0 X117.216 Y78.661 Z-0.000 F300.000
G1 X117.216 Y78.661 Z-0.000 F480.000
G1 X109.189 Y75.740 Z-0.000 F480.000
G4 P10.000
G0 X109.189 Y75.740 Z3.000 F300.000
G0 X130.800 Y85.734 Z3.000 F1200.000
G0 X130.800 Y85.734 Z-0.000 F300.000
G1 X130.800 Y85.734 Z-0.000 F480.000
G1 X125.129 Y83.670 Z-0.000 F480.000
G4 P10.000
G0 X125.129 Y83.670 Z3.000 F300.000
G0 X112.569 Y79.098 Z3.000 F1200.000
G0 X112.569 Y79.098 Z-0.000 F300.000
G1 X112.569 Y79.098 Z-0.000 F480.000
G1 X108.570 Y77.643 Z-0.000 F480.000
G4 P10.000
G0 X108.570 Y77.643 Z3.000 F300.000
G0 X131.584 Y88.148 Z3.000 F1200.000
G0 X131.584 Y88.148 Z-0.000 F300.000
G1 X131.584 Y88.148 Z-0.000 F480.000
G1 X125.913 Y86.084 Z-0.000 F480.000
G4 P10.000
G0 X125.913 Y86.084 Z3.000 F300.000
G0 X111.950 Y81.001 Z3.000 F1200.000
G0 X111.950 Y81.001 Z-0.000 F300.000
G1 X111.950 Y81.001 Z-0.000 F480.000
G1 X107.952 Y79.546 Z-0.000 F480.000
G4 P10.000
G0 X107.952 Y79.546 Z3.000 F300.000
G0 X132.144 Y90.480 Z3.000 F1200.000
G0 X132.144 Y90.480 Z-0.000 F300.000
G1 X132.144 Y90.480 Z-0.000 F480.000
G1 X126.698 Y88.497 Z-0.000 F480.000
G4 P10.000
G0 X126.698 Y88.497 Z3.000 F300.000
G0 X111.332 Y82.905 Z3.000 F1200.000
G0 X111.332 Y82.905 Z-0.000 F300.000
G1 X111.332 Y82.905 Z-0.000 F480.000
G1 X107.333 Y81.449 Z-0.000 F480.000
G4 P10.000
G0 X107.333 Y81.449 Z3.000 F300.000
G0 X130.192 Y91.898 Z3.000 F1200.000
G0 X130.192 Y91.898 Z-0.000 F300.000
G1 X130.192 Y91.898 Z-0.000 F480.000
G1 X125.230 Y90.091 Z-0.000 F480.000
G4 P10.000
G0 X125.230 Y90.091 Z3.000 F300.000
G0 X110.713 Y84.808 Z3.000 F1200.000
G0 X110.713 Y84.808 Z-0.000 F300.000
G1 X110.713 Y84.808 Z-0.000 F480.000
G1 X106.715 Y83.353 Z-0.000 F480.000
G4 P10.000
G0 X106.715 Y83.353 Z3.000 F300.000
G0 X128.240 Y93.316 Z3.000 F1200.000
G0 X128.240 Y93.316 Z-0.000 F300.000
G1 X128.240 Y93.316 Z-0.000 F480.000
G1 X123.278 Y91.509 Z-0.000 F480.000
G4 P10.000
G0 X123.278 Y91.509 Z3.000 F300.000
G0 X110.095 Y86.711 Z3.000 F1200.000
G0 X110.095 Y86.711 Z-0.000 F300.000
G1 X110.095 Y86.711 Z-0.000 F480.000
G1 X106.097 Y85.256 Z-0.000 F480.000
G4 P10.000
G0 X106.097 Y85.256 Z3.000 F300.000
G0 X126.289 Y94.734 Z3.000 F1200.000
G0 X126.289 Y94.734 Z-0.000 F300.000
G1 X126.289 Y94.734 Z-0.000 F480.000
G1 X121.326 Y92.927 Z-0.000 F480.000
G4 P10.000
G0 X121.326 Y92.927 Z3.000 F300.000
G0 X109.477 Y88.615 Z3.000 F1200.000
G0 X109.477 Y88.615 Z-0.000 F300.000
G1 X109.477 Y88.615 Z-0.000 F480.000
G1 X105.478 Y87.159 Z-0.000 F480.000
G4 P10.000
G0 X105.478 Y87.159 Z3.000 F300.000
G0 X124.337 Y96.152 Z3.000 F1200.000
G0 X124.337 Y96.152 Z-0.000 F300.000
G1 X124.337 Y96.152 Z-0.000 F480.000
G1 X119.374 Y94.345 Z-0.000 F480.000
G4 P10.000
G0 X119.374 Y94.345 Z3.000 F300.000
G0 X114.292 Y92.495 Z3.000 F1200.000
G0 X114.292 Y92.495 Z-0.000 F300.000
G1 X114.292 Y92.495 Z-0.000 F480.000
G1 X104.860 Y89.062 Z-0.000 F480.000
G4 P10.000
G0 X104.860 Y89.062 Z3.000 F300.000
G0 X122.385 Y97.570 Z3.000 F1200.000
G0 X122.385 Y97.570 Z-0.000 F300.000
G1 X122.385 Y97.570 Z-0.000 F480.000
G1 X106.296 Y91.714 Z-0.000 F480.000
G4 P10.000
G0 X106.296 Y91.714 Z3.000 F300.000
G0 X120.433 Y98.988 Z3.000 F1200.000
G0 X120.433 Y98.988 Z-0.000 F300.000
G1 X120.433 Y98.988 Z-0.000 F480.000
G1 X112.166 Y95.979 Z-0.000 F480.000
G4 P10.000
G0 X112.166 Y95.979 Z3.000 F300.000
G0 X118.482 Y100.406 Z3.000 F1200.000
G0 X118.482 Y100.406 Z-0.000 F300.000
G1 X118.482 Y100.406 Z-0.000 F480.000
G1 X118.037 Y100.243 Z-0.000 F480.000
G4 P10.000
G0 X118.037 Y100.243 Z3.000 F300.000
G0 X31.687 Y19.706 Z0.000 F300.000
G0 X31.687 Y19.706 Z-0.000 F1200.000
G1 X31.687 Y19.706 Z-0.000 F480.000
G1 X28.374 Y19.706 Z-0.000 F480.000
G1 X28.374 Y30.784 Z-0.000 F480.000
G1 X25.140 Y29.799 Z-0.000 F480.000
G1 X25.140 Y32.424 Z-0.000 F480.000
G1 X31.374 Y34.706 Z-0.000 F480.000
G1 X31.687 Y34.706 Z-0.000 F480.000
G1 X31.687 Y19.706 Z-0.000 F480.000
G4 P10.000
G0 X31.687 Y19.706 Z3.000 F300.000
G0 X55.741 Y27.514 Z3.000 F1200.000
G0 X55.741 Y27.514 Z-0.000 F300.000
G1 X55.741 Y27.514 Z-0.000 F480.000
G1 X56.616 Y34.998 Z-0.000 F480.000
G1 X64.929 Y34.998 Z-0.000 F480.000
G1 X64.929 Y32.389 Z-0.000 F480.000
G1 X59.288 Y32.389 Z-0.000 F480.000
G1 X58.960 Y29.467 Z-0.000 F480.000
G1 X58.960 Y29.467 Z-0.000 F480.000
G1 X59.034 Y29.507 Z-0.000 F480.000
G1 X59.112 Y29.546 Z-0.000 F480.000
G1 X59.194 Y29.585 Z-0.000 F480.000
G1 X59.280 Y29.622 Z-0.000 F480.000
G1 X59.370 Y29.658 Z-0.000 F480.000
G1 X59.464 Y29.694 Z-0.000 F480.000
G1 X59.563 Y29.728 Z-0.000 F480.000
G1 X59.665 Y29.762 Z-0.000 F480.000
G1 X59.771 Y29.795 Z-0.000 F480.000
G1 X59.882 Y29.826 Z-0.000 F480.000
G1 X59.882 Y29.826 Z-0.000 F480.000
G1 X59.997 Y29.859 Z-0.000 F480.000
G1 X60.112 Y29.888 Z-0.000 F480.000
G1 X60.226 Y29.914 Z-0.000 F480.000
G1 X60.339 Y29.936 Z-0.000 F480.000
G1 X60.452 Y29.955 Z-0.000 F480.000
G1 X60.564 Y29.971 Z-0.000 F480.000
G1 X60.676 Y29.983 Z-0.000 F480.000
G1 X60.787 Y29.991 Z-0.000 F480.000
G1 X60.897 Y29.997 Z-0.000 F480.000
G1 X61.007 Y29.998 Z-0.000 F480.000
G1 X61.007 Y29.998 Z-0.000 F480.000
G1 X61.422 Y29.985 Z-0.000 F480.000
G1 X61.817 Y29.946 Z-0.000 F480.000
G1 X62.192 Y29.880 Z-0.000 F480.000
G1 X62.547 Y29.788 Z-0.000 F480.000
G1 X62.882 Y29.670 Z-0.000 F480.000
G1 X63.197 Y29.526 Z-0.000 F480.000
G1 X63.492 Y29.355 Z-0.000 F480.000
G1 X63.767 Y29.158 Z-0.000 F480.000
G1 X64.022 Y28.935 Z-0.000 F480.000
G1 X64.257 Y28.686 Z-0.000 F480.000
G1 X64.257 Y28.686 Z-0.000 F480.000
G1 X64.474 Y28.413 Z-0.000 F480.000
G1 X64.668 Y28.119 Z-0.000 F480.000
G1 X64.839 Y27.804 Z-0.000 F480.000
G1 X64.987 Y27.468 Z-0.000 F480.000
G1 X65.112 Y27.112 Z-0.000 F480.000
G1 X65.215 Y26.734 Z-0.000 F480.000
G1 X65.295 Y26.335 Z-0.000 F480.000
G1 X65.352 Y25.916 Z-0.000 F480.000
G1 X65.386 Y25.475 Z-0.000 F480.000
G1 X65.398 Y25.014 Z-0.000 F480.000
G1 X65.398 Y25.014 Z-0.000 F480.000
G1 X65.391 Y24.726 Z-0.000 F480.000
G1 X65.373 Y24.444 Z-0.000 F480.000
G1 X65.343 Y24.169 Z-0.000 F480.000
G1 X65.300 Y23.899 Z-0.000 F480.000
G1 X65.245 Y23.635 Z-0.000 F480.000
G1 X65.178 Y23.377 Z-0.000 F480.000
G1 X65.099 Y23.125 Z-0.000 F480.000
G1 X65.008 Y22.879 Z-0.000 F480.000
G1 X64.904 Y22.639 Z-0.000 F480.000
G1 X64.788 Y22.404 Z-0.000 F480.000
G1 X64.788 Y22.404 Z-0.000 F480.000
G1 X64.661 Y22.179 Z-0.000 F480.000
G1 X64.524 Y21.963 Z-0.000 F480.000
G1 X64.378 Y21.759 Z-0.000 F480.000
G1 X64.221 Y21.564 Z-0.000 F480.000
G1 X64.054 Y21.381 Z-0.000 F480.000
G1 X63.877 Y21.208 Z-0.000 F480.000
G1 X63.690 Y21.046 Z-0.000 F480.000
G1 X63.493 Y20.894 Z-0.000 F480.000
G1 X63.286 Y20.754 Z-0.000 F480.000
G1 X63.069 Y20.623 Z-0.000 F480.000
G1 X63.069 Y20.623 Z-0.000 F480.000
G1 X62.847 Y20.504 Z-0.000 F480.000
G1 X62.616 Y20.398 Z-0.000 F480.000
G1 X62.377 Y20.304 Z-0.000 F480.000
G1 X62.129 Y20.223 Z-0.000 F480.000
G1 X61.874 Y20.154 Z-0.000 F480.000
G1 X61.611 Y20.098 Z-0.000 F480.000
G1 X61.339 Y20.054 Z-0.000 F480.000
G1 X61.059 Y20.023 Z-0.000 F480.000
G1 X60.772 Y20.004 Z-0.000 F480.000
G1 X60.476 Y19.998 Z-0.000 F480.000
G1 X60.476 Y19.998 Z-0.000 F480.000
G1 X60.209 Y20.004 Z-0.000 F480.000
G1 X59.945 Y20.021 Z-0.000 F480.000
G1 X59.685 Y20.049 Z-0.000 F480.000
G1 X59.428 Y20.088 Z-0.000 F480.000
G1 X59.175 Y20.139 Z-0.000 F480.000
G1 X58.925 Y20.201 Z-0.000 F480.000
G1 X58.679 Y20.274 Z-0.000 F480.000
G1 X58.436 Y20.358 Z-0.000 F480.000
G1 X58.196 Y20.454 Z-0.000 F480.000
G1 X57.960 Y20.561 Z-0.000 F480.000
G1 X57.960 Y20.561 Z-0.000 F480.000
G1 X57.731 Y20.681 Z-0.000 F480.000
G1 X57.511 Y20.809 Z-0.000 F480.000
G1 X57.302 Y20.946 Z-0.000 F480.000
G1 X57.103 Y21.091 Z-0.000 F480.000
G1 X56.913 Y21.244 Z-0.000 F480.000
G1 X56.734 Y21.406 Z-0.000 F480.000
G1 X56.564 Y21.577 Z-0.000 F480.000
G1 X56.405 Y21.756 Z-0.000 F480.000
G1 X56.256 Y21.943 Z-0.000 F480.000
G1 X56.116 Y22.139 Z-0.000 F480.000
G1 X56.116 Y22.139 Z-0.000 F480.000
G1 X55.992 Y22.344 Z-0.000 F480.000
G1 X55.881 Y22.554 Z-0.000 F480.000
G1 X55.783 Y22.769 Z-0.000 F480.000
G1 X55.699 Y22.989 Z-0.000 F480.000
G1 X55.628 Y23.213 Z-0.000 F480.000
G1 X55.571 Y23.442 Z-0.000 F480.000
G1 X55.527 Y23.676 Z-0.000 F480.000
G1 X55.496 Y23.914 Z-0.000 F480.000
G1 X55.479 Y24.157 Z-0.000 F480.000
G1 X55.476 Y24.404 Z-0.000 F480.000
G1 X58.773 Y24.404 Z-0.000 F480.000
G1 X58.773 Y24.404 Z-0.000 F480.000
G1 X58.786 Y24.242 Z-0.000 F480.000
G1 X58.808 Y24.086 Z-0.000 F480.000
G1 X58.837 Y23.937 Z-0.000 F480.000
G1 X58.875 Y23.794 Z-0.000 F480.000
G1 X58.921 Y23.658 Z-0.000 F480.000
G1 X58.975 Y23.529 Z-0.000 F480.000
G1 X59.037 Y23.406 Z-0.000 F480.000
G1 X59.108 Y23.289 Z-0.000 F480.000
G1 X59.186 Y23.180 Z-0.000 F480.000
G1 X59.273 Y23.076 Z-0.000 F480.000
G1 X59.273 Y23.076 Z-0.000 F480.000
G1 X59.366 Y22.984 Z-0.000 F480.000
G1 X59.464 Y22.902 Z-0.000 F480.000
G1 X59.568 Y22.829 Z-0.000 F480.000
G1 X59.678 Y22.766 Z-0.000 F480.000
G1 X59.792 Y22.713 Z-0.000 F480.000
G1 X59.912 Y22.669 Z-0.000 F480.000
G1 X60.037 Y22.636 Z-0.000 F480.000
G1 X60.168 Y22.611 Z-0.000 F480.000
G1 X60.303 Y22.597 Z-0.000 F480.000
G1 X60.444 Y22.592 Z-0.000 F480.000
G1 X60.444 Y22.592 Z-0.000 F480.000
G1 X60.762 Y22.618 Z-0.000 F480.000
G1 X61.046 Y22.698 Z-0.000 F480.000
G1 X61.297 Y22.830 Z-0.000 F480.000
G1 X61.514 Y23.014 Z-0.000 F480.000
G1 X61.698 Y23.252 Z-0.000 F480.000
G1 X61.849 Y23.543 Z-0.000 F480.000
G1 X61.966 Y23.886 Z-0.000 F480.000
G1 X62.049 Y24.282 Z-0.000 F480.000
G1 X62.100 Y24.731 Z-0.000 F480.000
G1 X62.116 Y25.233 Z-0.000 F480.000
G1 X62.116 Y25.233 Z-0.000 F480.000
G1 X62.096 Y25.696 Z-0.000 F480.000
G1 X62.035 Y26.110 Z-0.000 F480.000
G1 X61.933 Y26.476 Z-0.000 F480.000
G1 X61.791 Y26.793 Z-0.000 F480.000
G1 X61.608 Y27.061 Z-0.000 F480.000
G1 X61.385 Y27.280 Z-0.000 F480.000
G1 X61.121 Y27.451 Z-0.000 F480.000
G1 X60.816 Y27.573 Z-0.000 F480.000
G1 X60.471 Y27.646 Z-0.000 F480.000
G1 X60.085 Y27.670 Z-0.000 F480.000
G1 X60.085 Y27.670 Z-0.000 F480.000
G1 X59.860 Y27.662 Z-0.000 F480.000
G1 X59.646 Y27.638 Z-0.000 F480.000
G1 X59.445 Y27.598 Z-0.000 F480.000
G1 X59.255 Y27.543 Z-0.000 F480.000
G1 X59.077 Y27.471 Z-0.000 F480.000
G1 X58.911 Y27.383 Z-0.000 F480.000
G1 X58.757 Y27.280 Z-0.000 F480.000
G1 X58.615 Y27.160 Z-0.000 F480.000
G1 X58.485 Y27.025 Z-0.000 F480.000
G1 X58.366 Y26.873 Z-0.000 F480.000
G1 X55.741 Y27.514 Z-0.000 F480.000
G4 P10.000
G0 X55.741 Y27.514 Z3.000 F300.000
G0 X86.197 Y20.603 Z3.000 F1200.000
G0 X86.197 Y20.603 Z-0.000 F300.000
G1 X86.197 Y20.603 Z-0.000 F480.000
G1 X82.885 Y20.603 Z-0.000 F480.000
G1 X82.885 Y31.681 Z-0.000 F480.000
G1 X79.650 Y30.697 Z-0.000 F480.000
G1 X79.650 Y33.322 Z-0.000 F480.000
G1 X85.885 Y35.603 Z-0.000 F480.000
G1 X86.197 Y35.603 Z-0.000 F480.000
G1 X86.197 Y20.603 Z-0.000 F480.000
G4 P10.000
G0 X86.197 Y20.603 Z3.000 F300.000
G0 X97.479 Y29.869 Z3.000 F1200.000
G0 X97.479 Y29.869 Z-0.000 F300.000
G1 X97.479 Y29.869 Z-0.000 F480.000
G1 X97.479 Y29.869 Z-0.000 F480.000
G1 X97.475 Y30.176 Z-0.000 F480.000
G1 X97.462 Y30.468 Z-0.000 F480.000
G1 X97.442 Y30.744 Z-0.000 F480.000
G1 X97.414 Y31.004 Z-0.000 F480.000
G1 X97.377 Y31.247 Z-0.000 F480.000
G1 X97.332 Y31.475 Z-0.000 F480.000
G1 X97.280 Y31.687 Z-0.000 F480.000
G1 X97.219 Y31.884 Z-0.000 F480.000
G1 X97.150 Y32.064 Z-0.000 F480.000
G1 X97.072 Y32.228 Z-0.000 F480.000
G1 X97.072 Y32.228 Z-0.000 F480.000
G1 X96.989 Y32.376 Z-0.000 F480.000
G1 X96.897 Y32.509 Z-0.000 F480.000
G1 X96.794 Y32.626 Z-0.000 F480.000
G1 X96.682 Y32.728 Z-0.000 F480.000
G1 X96.561 Y32.814 Z-0.000 F480.000
G1 X96.429 Y32.884 Z-0.000 F480.000
G1 X96.288 Y32.939 Z-0.000 F480.000
G1 X96.137 Y32.978 Z-0.000 F480.000
G1 X95.977 Y33.001 Z-0.000 F480.000
G1 X95.807 Y33.009 Z-0.000 F480.000
G1 X95.807 Y33.009 Z-0.000 F480.000
G1 X95.643 Y33.002 Z-0.000 F480.000
G1 X95.487 Y32.980 Z-0.000 F480.000
G1 X95.341 Y32.943 Z-0.000 F480.000
G1 X95.204 Y32.892 Z-0.000 F480.000
G1 X95.076 Y32.826 Z-0.000 F480.000
G1 X94.957 Y32.745 Z-0.000 F480.000
G1 X94.848 Y32.649 Z-0.000 F480.000
G1 X94.747 Y32.539 Z-0.000 F480.000
G1 X94.655 Y32.414 Z-0.000 F480.000
G1 X94.572 Y32.275 Z-0.000 F480.000
G1 X94.572 Y32.275 Z-0.000 F480.000
G1 X94.498 Y32.124 Z-0.000 F480.000
G1 X94.430 Y31.957 Z-0.000 F480.000
G1 X94.370 Y31.776 Z-0.000 F480.000
G1 X94.317 Y31.580 Z-0.000 F480.000
G1 X94.272 Y31.369 Z-0.000 F480.000
G1 X94.233 Y31.142 Z-0.000 F480.000
G1 X94.202 Y30.901 Z-0.000 F480.000
G1 X94.177 Y30.645 Z-0.000 F480.000
G1 X94.160 Y30.374 Z-0.000 F480.000
G1 X94.150 Y30.087 Z-0.000 F480.000
G1 X94.150 Y26.353 Z-0.000 F480.000
G1 X94.150 Y26.353 Z-0.000 F480.000
G1 X94.155 Y26.037 Z-0.000 F480.000
G1 X94.167 Y25.737 Z-0.000 F480.000
G1 X94.187 Y25.455 Z-0.000 F480.000
G1 X94.215 Y25.190 Z-0.000 F480.000
G1 X94.252 Y24.943 Z-0.000 F480.000
G1 X94.297 Y24.712 Z-0.000 F480.000
G1 X94.350 Y24.499 Z-0.000 F480.000
G1 X94.410 Y24.303 Z-0.000 F480.000
G1 X94.480 Y24.124 Z-0.000 F480.000
G1 X94.557 Y23.962 Z-0.000 F480.000
G1 X94.557 Y23.962 Z-0.000 F480.000
G1 X94.643 Y23.817 Z-0.000 F480.000
G1 X94.737 Y23.687 Z-0.000 F480.000
G1 X94.841 Y23.572 Z-0.000 F480.000
G1 X94.954 Y23.472 Z-0.000 F480.000
G1 X95.076 Y23.388 Z-0.000 F480.000
G1 X95.207 Y23.319 Z-0.000 F480.000
G1 X95.348 Y23.266 Z-0.000 F480.000
G1 X95.497 Y23.227 Z-0.000 F480.000
G1 X95.655 Y23.204 Z-0.000 F480.000
G1 X95.822 Y23.197 Z-0.000 F480.000
G1 X95.822 Y23.197 Z-0.000 F480.000
G1 X95.987 Y23.204 Z-0.000 F480.000
G1 X96.142 Y23.226 Z-0.000 F480.000
G1 X96.288 Y23.263 Z-0.000 F480.000
G1 X96.425 Y23.314 Z-0.000 F480.000
G1 X96.553 Y23.380 Z-0.000 F480.000
G1 X96.672 Y23.461 Z-0.000 F480.000
G1 X96.782 Y23.557 Z-0.000 F480.000
G1 X96.882 Y23.667 Z-0.000 F480.000
G1 X96.974 Y23.792 Z-0.000 F480.000
G1 X97.057 Y23.931 Z-0.000 F480.000
G1 X97.057 Y23.931 Z-0.000 F480.000
G1 X97.134 Y24.089 Z-0.000 F480.000
G1 X97.204 Y24.264 Z-0.000 F480.000
G1 X97.265 Y24.454 Z-0.000 F480.000
G1 X97.319 Y24.661 Z-0.000 F480.000
G1 X97.365 Y24.884 Z-0.000 F480.000
G1 X97.404 Y25.124 Z-0.000 F480.000
G1 X97.434 Y25.379 Z-0.000 F480.000
G1 X97.457 Y25.651 Z-0.000 F480.000
G1 X97.472 Y25.939 Z-0.000 F480.000
G1 X97.479 Y26.244 Z-0.000 F480.000
G1 X97.479 Y29.869 Z-0.000 F480.000
G4 P10.000
G0 X97.479 Y29.869 Z3.000 F300.000
G0 X100.775 Y26.775 Z3.000 F1200.000
G0 X100.775 Y26.775 Z-0.000 F300.000
G1 X100.775 Y26.775 Z-0.000 F480.000
G1 X100.775 Y26.775 Z-0.000 F480.000
G1 X100.763 Y26.198 Z-0.000 F480.000
G1 X100.724 Y25.647 Z-0.000 F480.000
G1 X100.659 Y25.124 Z-0.000 F480.000
G1 X100.568 Y24.627 Z-0.000 F480.000
G1 X100.451 Y24.158 Z-0.000 F480.000
G1 X100.309 Y23.715 Z-0.000 F480.000
G1 X100.140 Y23.299 Z-0.000 F480.000
G1 X99.945 Y22.910 Z-0.000 F480.000
G1 X99.725 Y22.548 Z-0.000 F480.000
G1 X99.479 Y22.212 Z-0.000 F480.000
G1 X99.479 Y22.212 Z-0.000 F480.000
G1 X99.209 Y21.907 Z-0.000 F480.000
G1 X98.917 Y21.633 Z-0.000 F480.000
G1 X98.605 Y21.392 Z-0.000 F480.000
G1 X98.271 Y21.182 Z-0.000 F480.000
G1 X97.916 Y21.005 Z-0.000 F480.000
G1 X97.540 Y20.860 Z-0.000 F480.000
G1 X97.142 Y20.748 Z-0.000 F480.000
G1 X96.724 Y20.667 Z-0.000 F480.000
G1 X96.284 Y20.619 Z-0.000 F480.000
G1 X95.822 Y20.603 Z-0.000 F480.000
G1 X95.822 Y20.603 Z-0.000 F480.000
G1 X95.358 Y20.619 Z-0.000 F480.000
G1 X94.915 Y20.667 Z-0.000 F480.000
G1 X94.494 Y20.748 Z-0.000 F480.000
G1 X94.095 Y20.860 Z-0.000 F480.000
G1 X93.717 Y21.005 Z-0.000 F480.000
G1 X93.360 Y21.182 Z-0.000 F480.000
G1 X93.026 Y21.392 Z-0.000 F480.000
G1 X92.712 Y21.633 Z-0.000 F480.000
G1 X92.421 Y21.907 Z-0.000 F480.000
G1 X92.150 Y22.212 Z-0.000 F480.000
G1 X92.150 Y22.212 Z-0.000 F480.000
G1 X91.904 Y22.550 Z-0.000 F480.000
G1 X91.684 Y22.915 Z-0.000 F480.000
G1 X91.489 Y23.305 Z-0.000 F480.000
G1 X91.320 Y23.722 Z-0.000 F480.000
G1 X91.178 Y24.165 Z-0.000 F480.000
G1 X91.061 Y24.635 Z-0.000 F480.000
G1 X90.970 Y25.130 Z-0.000 F480.000
G1 X90.905 Y25.652 Z-0.000 F480.000
G1 X90.867 Y26.200 Z-0.000 F480.000
G1 X90.854 Y26.775 Z-0.000 F480.000
G1 X90.854 Y29.431 Z-0.000 F480.000
G1 X90.854 Y29.431 Z-0.000 F480.000
G1 X90.867 Y30.008 Z-0.000 F480.000
G1 X90.905 Y30.559 Z-0.000 F480.000
G1 X90.970 Y31.082 Z-0.000 F480.000
G1 X91.061 Y31.579 Z-0.000 F480.000
G1 X91.178 Y32.048 Z-0.000 F480.000
G1 X91.320 Y32.491 Z-0.000 F480.000
G1 X91.489 Y32.907 Z-0.000 F480.000
G1 X91.684 Y33.296 Z-0.000 F480.000
G1 X91.904 Y33.658 Z-0.000 F480.000
G1 X92.150 Y33.994 Z-0.000 F480.000
G1 X92.150 Y33.994 Z-0.000 F480.000
G1 X92.420 Y34.299 Z-0.000 F480.000
G1 X92.712 Y34.573 Z-0.000 F480.000
G1 X93.024 Y34.814 Z-0.000 F480.000
G1 X93.358 Y35.024 Z-0.000 F480.000
G1 X93.713 Y35.201 Z-0.000 F480.000
G1 X94.089 Y35.345 Z-0.000 F480.000
G1 X94.487 Y35.458 Z-0.000 F480.000
G1 X94.905 Y35.539 Z-0.000 F480.000
G1 X95.345 Y35.587 Z-0.000 F480.000
G1 X95.807 Y35.603 Z-0.000 F480.000
G1 X95.807 Y35.603 Z-0.000 F480.000
G1 X96.268 Y35.587 Z-0.000 F480.000
G1 X96.708 Y35.538 Z-0.000 F480.000
G1 X97.127 Y35.457 Z-0.000 F480.000
G1 X97.524 Y35.343 Z-0.000 F480.000
G1 X97.900 Y35.197 Z-0.000 F480.000
G1 X98.255 Y35.018 Z-0.000 F480.000
G1 X98.589 Y34.807 Z-0.000 F480.000
G1 X98.902 Y34.563 Z-0.000 F480.000
G1 X99.193 Y34.287 Z-0.000 F480.000
G1 X99.463 Y33.978 Z-0.000 F480.000
G1 X99.463 Y33.978 Z-0.000 F480.000
G1 X99.712 Y33.643 Z-0.000 F480.000
G1 X99.935 Y33.280 Z-0.000 F480.000
G1 X100.132 Y32.891 Z-0.000 F480.000
G1 X100.303 Y32.475 Z-0.000 F480.000
G1 X100.447 Y32.033 Z-0.000 F480.000
G1 X100.565 Y31.563 Z-0.000 F480.000
G1 X100.657 Y31.066 Z-0.000 F480.000
G1 X100.723 Y30.543 Z-0.000 F480.000
G1 X100.762 Y29.993 Z-0.000 F480.000
G1 X100.775 Y29.415 Z-0.000 F480.000
G1 X100.775 Y26.775 Z-0.000 F480.000
G4 P10.000
G0 X100.775 Y26.775 Z3.000 F300.000
G0 X115.852 Y20.620 Z3.000 F1200.000
G0 X115.852 Y20.620 Z-0.000 F300.000
G1 X115.852 Y20.620 Z-0.000 F480.000
G1 X112.539 Y20.620 Z-0.000 F480.000
G1 X112.539 Y31.699 Z-0.000 F480.000
G1 X109.305 Y30.714 Z-0.000 F480.000
G1 X109.305 Y33.339 Z-0.000 F480.000
G1 X115.539 Y35.620 Z-0.000 F480.000
G1 X115.852 Y35.620 Z-0.000 F480.000
G1 X115.852 Y20.620 Z-0.000 F480.000
G4 P10.000
G0 X115.852 Y20.620 Z3.000 F300.000
G0 X120.742 Y28.136 Z3.000 F1200.000
G0 X120.742 Y28.136 Z-0.000 F300.000
G1 X120.742 Y28.136 Z-0.000 F480.000
G1 X121.617 Y35.620 Z-0.000 F480.000
G1 X129.930 Y35.620 Z-0.000 F480.000
G1 X129.930 Y33.011 Z-0.000 F480.000
G1 X124.289 Y33.011 Z-0.000 F480.000
G1 X123.961 Y30.089 Z-0.000 F480.000
G1 X123.961 Y30.089 Z-0.000 F480.000
G1 X124.035 Y30.129 Z-0.000 F480.000
G1 X124.113 Y30.169 Z-0.000 F480.000
G1 X124.195 Y30.207 Z-0.000 F480.000
G1 X124.281 Y30.244 Z-0.000 F480.000
G1 X124.371 Y30.281 Z-0.000 F480.000
G1 X124.465 Y30.316 Z-0.000 F480.000
G1 X124.564 Y30.351 Z-0.000 F480.000
G1 X124.666 Y30.384 Z-0.000 F480.000
G1 X124.772 Y30.417 Z-0.000 F480.000
G1 X124.883 Y30.449 Z-0.000 F480.000
G1 X124.883 Y30.449 Z-0.000 F480.000
G1 X124.998 Y30.481 Z-0.000 F480.000
G1 X125.113 Y30.510 Z-0.000 F480.000
G1 X125.227 Y30.536 Z-0.000 F480.000
G1 X125.340 Y30.559 Z-0.000 F480.000
G1 X125.453 Y30.577 Z-0.000 F480.000
G1 X125.565 Y30.593 Z-0.000 F480.000
G1 X125.677 Y30.605 Z-0.000 F480.000
G1 X125.788 Y30.614 Z-0.000 F480.000
G1 X125.898 Y30.619 Z-0.000 F480.000
G1 X126.008 Y30.620 Z-0.000 F480.000
G1 X126.008 Y30.620 Z-0.000 F480.000
G1 X126.423 Y30.607 Z-0.000 F480.000
G1 X126.818 Y30.568 Z-0.000 F480.000
G1 X127.193 Y30.502 Z-0.000 F480.000
G1 X127.548 Y30.410 Z-0.000 F480.000
G1 X127.883 Y30.292 Z-0.000 F480.000
G1 X128.198 Y30.148 Z-0.000 F480.000
G1 X128.493 Y29.977 Z-0.000 F480.000
G1 X128.768 Y29.780 Z-0.000 F480.000
G1 X129.023 Y29.557 Z-0.000 F480.000
G1 X129.258 Y29.308 Z-0.000 F480.000
G1 X129.258 Y29.308 Z-0.000 F480.000
G1 X129.475 Y29.035 Z-0.000 F480.000
G1 X129.668 Y28.741 Z-0.000 F480.000
G1 X129.840 Y28.426 Z-0.000 F480.000
G1 X129.988 Y28.090 Z-0.000 F480.000
G1 X130.113 Y27.734 Z-0.000 F480.000
G1 X130.216 Y27.356 Z-0.000 F480.000
G1 X130.296 Y26.957 Z-0.000 F480.000
G1 X130.353 Y26.538 Z-0.000 F480.000
G1 X130.387 Y26.097 Z-0.000 F480.000
G1 X130.398 Y25.636 Z-0.000 F480.000
G1 X130.398 Y25.636 Z-0.000 F480.000
G1 X130.392 Y25.348 Z-0.000 F480.000
G1 X130.374 Y25.067 Z-0.000 F480.000
G1 X130.344 Y24.791 Z-0.000 F480.000
G1 X130.301 Y24.521 Z-0.000 F480.000
G1 X130.246 Y24.257 Z-0.000 F480.000
G1 X130.179 Y23.999 Z-0.000 F480.000
G1 X130.100 Y23.747 Z-0.000 F480.000
G1 X130.008 Y23.501 Z-0.000 F480.000
G1 X129.905 Y23.261 Z-0.000 F480.000
G1 X129.789 Y23.027 Z-0.000 F480.000
G1 X129.789 Y23.027 Z-0.000 F480.000
G1 X129.662 Y22.801 Z-0.000 F480.000
G1 X129.525 Y22.585 Z-0.000 F480.000
G1 X129.378 Y22.381 Z-0.000 F480.000
G1 X129.222 Y22.187 Z-0.000 F480.000
G1 X129.055 Y22.003 Z-0.000 F480.000
G1 X128.878 Y21.830 Z-0.000 F480.000
G1 X128.691 Y21.668 Z-0.000 F480.000
G1 X128.494 Y21.517 Z-0.000 F480.000
G1 X128.287 Y21.376 Z-0.000 F480.000
G1 X128.070 Y21.245 Z-0.000 F480.000
G1 X128.070 Y21.245 Z-0.000 F480.000
G1 X127.847 Y21.127 Z-0.000 F480.000
G1 X127.617 Y21.020 Z-0.000 F480.000
G1 X127.377 Y20.927 Z-0.000 F480.000
G1 X127.130 Y20.845 Z-0.000 F480.000
G1 X126.875 Y20.777 Z-0.000 F480.000
G1 X126.612 Y20.720 Z-0.000 F480.000
G1 X126.340 Y20.677 Z-0.000 F480.000
G1 X126.060 Y20.645 Z-0.000 F480.000
G1 X125.772 Y20.627 Z-0.000 F480.000
G1 X125.477 Y20.620 Z-0.000 F480.000
G1 X125.477 Y20.620 Z-0.000 F480.000
G1 X125.210 Y20.626 Z-0.000 F480.000
G1 X124.946 Y20.643 Z-0.000 F480.000
G1 X124.686 Y20.671 Z-0.000 F480.000
G1 X124.429 Y20.710 Z-0.000 F480.000
G1 X124.176 Y20.761 Z-0.000 F480.000
G1 X123.926 Y20.823 Z-0.000 F480.000
G1 X123.680 Y20.896 Z-0.000 F480.000
G1 X123.437 Y20.980 Z-0.000 F480.000
G1 X123.197 Y21.076 Z-0.000 F480.000
G1 X122.961 Y21.183 Z-0.000 F480.000
G1 X122.961 Y21.183 Z-0.000 F480.000
G1 X122.732 Y21.303 Z-0.000 F480.000
G1 X122.512 Y21.431 Z-0.000 F480.000
G1 X122.303 Y21.568 Z-0.000 F480.000
G1 X122.103 Y21.713 Z-0.000 F480.000
G1 X121.914 Y21.867 Z-0.000 F480.000
G1 X121.735 Y22.029 Z-0.000 F480.000
G1 X121.565 Y22.199 Z-0.000 F480.000
G1 X121.406 Y22.378 Z-0.000 F480.000
G1 X121.257 Y22.565 Z-0.000 F480.000
G1 X121.117 Y22.761 Z-0.000 F480.000
G1 X121.117 Y22.761 Z-0.000 F480.000
G1 X120.993 Y22.967 Z-0.000 F480.000
G1 X120.882 Y23.177 Z-0.000 F480.000
G1 X120.784 Y23.392 Z-0.000 F480.000
G1 X120.700 Y23.611 Z-0.000 F480.000
G1 X120.629 Y23.835 Z-0.000 F480.000
G1 X120.572 Y24.064 Z-0.000 F480.000
G1 X120.528 Y24.298 Z-0.000 F480.000
G1 X120.497 Y24.536 Z-0.000 F480.000
G1 X120.480 Y24.779 Z-0.000 F480.000
G1 X120.477 Y25.027 Z-0.000 F480.000
G1 X123.773 Y25.027 Z-0.000 F480.000
G1 X123.773 Y25.027 Z-0.000 F480.000
G1 X123.787 Y24.864 Z-0.000 F480.000
G1 X123.808 Y24.709 Z-0.000 F480.000
G1 X123.838 Y24.559 Z-0.000 F480.000
G1 X123.876 Y24.417 Z-0.000 F480.000
G1 X123.922 Y24.281 Z-0.000 F480.000
G1 X123.976 Y24.151 Z-0.000 F480.000
G1 X124.038 Y24.028 Z-0.000 F480.000
G1 X124.108 Y23.912 Z-0.000 F480.000
G1 X124.187 Y23.802 Z-0.000 F480.000
G1 X124.273 Y23.699 Z-0.000 F480.000
G1 X124.273 Y23.699 Z-0.000 F480.000
G1 X124.367 Y23.607 Z-0.000 F480.000
G1 X124.465 Y23.524 Z-0.000 F480.000
G1 X124.569 Y23.452 Z-0.000 F480.000
G1 X124.678 Y23.389 Z-0.000 F480.000
G1 X124.793 Y23.335 Z-0.000 F480.000
G1 X124.913 Y23.292 Z-0.000 F480.000
G1 X125.038 Y23.258 Z-0.000 F480.000
G1 X125.168 Y23.234 Z-0.000 F480.000
G1 X125.304 Y23.219 Z-0.000 F480.000
G1 X125.445 Y23.214 Z-0.000 F480.000
G1 X125.445 Y23.214 Z-0.000 F480.000
G1 X125.763 Y23.241 Z-0.000 F480.000
G1 X126.047 Y23.320 Z-0.000 F480.000
G1 X126.298 Y23.452 Z-0.000 F480.000
G1 X126.515 Y23.637 Z-0.000 F480.000
G1 X126.699 Y23.874 Z-0.000 F480.000
G1 X126.850 Y24.165 Z-0.000 F480.000
G1 X126.967 Y24.508 Z-0.000 F480.000
G1 X127.050 Y24.904 Z-0.000 F480.000
G1 X127.100 Y25.353 Z-0.000 F480.000
G1 X127.117 Y25.855 Z-0.000 F480.000
G1 X127.117 Y25.855 Z-0.000 F480.000
G1 X127.097 Y26.318 Z-0.000 F480.000
G1 X127.036 Y26.732 Z-0.000 F480.000
G1 X126.934 Y27.098 Z-0.000 F480.000
G1 X126.792 Y27.415 Z-0.000 F480.000
G1 X126.609 Y27.683 Z-0.000 F480.000
G1 X126.386 Y27.902 Z-0.000 F480.000
G1 X126.122 Y28.073 Z-0.000 F480.000
G1 X125.817 Y28.195 Z-0.000 F480.000
G1 X125.472 Y28.268 Z-0.000 F480.000
G1 X125.086 Y28.292 Z-0.000 F480.000
G1 X125.086 Y28.292 Z-0.000 F480.000
G1 X124.861 Y28.284 Z-0.000 F480.000
G1 X124.647 Y28.260 Z-0.000 F480.000
G1 X124.446 Y28.221 Z-0.000 F480.000
G1 X124.256 Y28.165 Z-0.000 F480.000
G1 X124.078 Y28.093 Z-0.000 F480.000
G1 X123.912 Y28.005 Z-0.000 F480.000
G1 X123.758 Y27.902 Z-0.000 F480.000
G1 X123.616 Y27.782 Z-0.000 F480.000
G1 X123.486 Y27.647 Z-0.000 F480.000
G1 X123.367 Y27.495 Z-0.000 F480.000
G1 X120.742 Y28.136 Z-0.000 F480.000
G4 P10.000
G0 X120.742 Y28.136 Z3.000 F300.000
G0 X149.567 Y20.747 Z3.000 F1200.000
G0 X149.567 Y20.747 Z-0.000 F300.000
G1 X149.567 Y20.747 Z-0.000 F480.000
G1 X139.645 Y20.747 Z-0.000 F480.000
G1 X139.645 Y22.935 Z-0.000 F480.000
G1 X144.208 Y27.982 Z-0.000 F480.000
G1 X144.208 Y27.982 Z-0.000 F480.000
G1 X144.528 Y28.377 Z-0.000 F480.000
G1 X144.815 Y28.756 Z-0.000 F480.000
G1 X145.068 Y29.118 Z-0.000 F480.000
G1 X145.288 Y29.464 Z-0.000 F480.000
G1 X145.473 Y29.794 Z-0.000 F480.000
G1 X145.625 Y30.108 Z-0.000 F480.000
G1 X145.743 Y30.406 Z-0.000 F480.000
G1 X145.828 Y30.687 Z-0.000 F480.000
G1 X145.878 Y30.952 Z-0.000 F480.000
G1 X145.895 Y31.201 Z-0.000 F480.000
G1 X145.895 Y31.201 Z-0.000 F480.000
G1 X145.891 Y31.387 Z-0.000 F480.000
G1 X145.879 Y31.564 Z-0.000 F480.000
G1 X145.859 Y31.732 Z-0.000 F480.000
G1 X145.830 Y31.891 Z-0.000 F480.000
G1 X145.794 Y32.040 Z-0.000 F480.000
G1 X145.749 Y32.181 Z-0.000 F480.000
G1 X145.696 Y32.313 Z-0.000 F480.000
G1 X145.635 Y32.436 Z-0.000 F480.000
G1 X145.566 Y32.549 Z-0.000 F480.000
G1 X145.489 Y32.654 Z-0.000 F480.000
G1 X145.489 Y32.654 Z-0.000 F480.000
G1 X145.407 Y32.749 Z-0.000 F480.000
G1 X145.318 Y32.834 Z-0.000 F480.000
G1 X145.221 Y32.909 Z-0.000 F480.000
G1 X145.116 Y32.974 Z-0.000 F480.000
G1 X145.004 Y33.029 Z-0.000 F480.000
G1 X144.885 Y33.074 Z-0.000 F480.000
G1 X144.758 Y33.109 Z-0.000 F480.000
G1 X144.624 Y33.134 Z-0.000 F480.000
G1 X144.482 Y33.149 Z-0.000 F480.000
G1 X144.333 Y33.154 Z-0.000 F480.000
G1 X144.333 Y33.154 Z-0.000 F480.000
G1 X144.185 Y33.147 Z-0.000 F480.000
G1 X144.044 Y33.127 Z-0.000 F480.000
G1 X143.908 Y33.093 Z-0.000 F480.000
G1 X143.778 Y33.046 Z-0.000 F480.000
G1 X143.653 Y32.986 Z-0.000 F480.000
G1 X143.534 Y32.912 Z-0.000 F480.000
G1 X143.420 Y32.825 Z-0.000 F480.000
G1 X143.313 Y32.724 Z-0.000 F480.000
G1 X143.210 Y32.610 Z-0.000 F480.000
G1 X143.114 Y32.482 Z-0.000 F480.000
G1 X143.114 Y32.482 Z-0.000 F480.000
G1 X143.025 Y32.347 Z-0.000 F480.000
G1 X142.945 Y32.205 Z-0.000 F480.000
G1 X142.875 Y32.056 Z-0.000 F480.000
G1 X142.814 Y31.899 Z-0.000 F480.000
G1 X142.762 Y31.736 Z-0.000 F480.000
G1 X142.720 Y31.565 Z-0.000 F480.000
G1 X142.687 Y31.387 Z-0.000 F480.000
G1 X142.664 Y31.202 Z-0.000 F480.000
G1 X142.650 Y31.010 Z-0.000 F480.000
G1 X142.645 Y30.810 Z-0.000 F480.000
G1 X139.348 Y30.810 Z-0.000 F480.000
G1 X139.348 Y30.810 Z-0.000 F480.000
G1 X139.355 Y31.080 Z-0.000 F480.000
G1 X139.374 Y31.345 Z-0.000 F480.000
G1 X139.407 Y31.606 Z-0.000 F480.000
G1 X139.453 Y31.862 Z-0.000 F480.000
G1 X139.512 Y32.115 Z-0.000 F480.000
G1 X139.584 Y32.362 Z-0.000 F480.000
G1 X139.670 Y32.606 Z-0.000 F480.000
G1 X139.768 Y32.845 Z-0.000 F480.000
G1 X139.880 Y33.080 Z-0.000 F480.000
G1 X140.004 Y33.310 Z-0.000 F480.000
G1 X140.004 Y33.310 Z-0.000 F480.000
G1 X140.141 Y33.533 Z-0.000 F480.000
G1 X140.287 Y33.746 Z-0.000 F480.000
G1 X140.443 Y33.949 Z-0.000 F480.000
G1 X140.609 Y34.142 Z-0.000 F480.000
G1 X140.786 Y34.326 Z-0.000 F480.000
G1 X140.972 Y34.499 Z-0.000 F480.000
G1 X141.168 Y34.662 Z-0.000 F480.000
G1 X141.374 Y34.815 Z-0.000 F480.000
G1 X141.591 Y34.958 Z-0.000 F480.000
G1 X141.817 Y35.091 Z-0.000 F480.000
G1 X141.817 Y35.091 Z-0.000 F480.000
G1 X142.051 Y35.216 Z-0.000 F480.000
G1 X142.291 Y35.327 Z-0.000 F480.000
G1 X142.536 Y35.426 Z-0.000 F480.000
G1 X142.787 Y35.511 Z-0.000 F480.000
G1 X143.044 Y35.583 Z-0.000 F480.000
G1 X143.306 Y35.642 Z-0.000 F480.000
G1 X143.574 Y35.688 Z-0.000 F480.000
G1 X143.847 Y35.721 Z-0.000 F480.000
G1 X144.126 Y35.741 Z-0.000 F480.000
G1 X144.411 Y35.747 Z-0.000 F480.000
G1 X144.411 Y35.747 Z-0.000 F480.000
G1 X144.862 Y35.736 Z-0.000 F480.000
G1 X145.293 Y35.703 Z-0.000 F480.000
G1 X145.701 Y35.648 Z-0.000 F480.000
G1 X146.088 Y35.570 Z-0.000 F480.000
G1 X146.454 Y35.470 Z-0.000 F480.000
G1 X146.798 Y35.348 Z-0.000 F480.000
G1 X147.120 Y35.204 Z-0.000 F480.000
G1 X147.421 Y35.037 Z-0.000 F480.000
G1 X147.700 Y34.849 Z-0.000 F480.000
G1 X147.958 Y34.638 Z-0.000 F480.000
G1 X147.958 Y34.638 Z-0.000 F480.000
G1 X148.195 Y34.407 Z-0.000 F480.000
G1 X148.408 Y34.156 Z-0.000 F480.000
G1 X148.595 Y33.885 Z-0.000 F480.000
G1 X148.758 Y33.596 Z-0.000 F480.000
G1 X148.895 Y33.287 Z-0.000 F480.000
G1 X149.008 Y32.958 Z-0.000 F480.000
G1 X149.095 Y32.610 Z-0.000 F480.000
G1 X149.158 Y32.243 Z-0.000 F480.000
G1 X149.195 Y31.857 Z-0.000 F480.000
G1 X149.208 Y31.451 Z-0.000 F480.000
G1 X149.208 Y31.451 Z-0.000 F480.000
G1 X149.204 Y31.276 Z-0.000 F480.000
G1 X149.195 Y31.102 Z-0.000 F480.000
G1 X149.179 Y30.930 Z-0.000 F480.000
G1 X149.158 Y30.758 Z-0.000 F480.000
G1 X149.129 Y30.587 Z-0.000 F480.000
G1 X149.095 Y30.417 Z-0.000 F480.000
G1 X149.054 Y30.249 Z-0.000 F480.000
G1 X149.008 Y30.081 Z-0.000 F480.000
G1 X148.954 Y29.914 Z-0.000 F480.000
G1 X148.895 Y29.747 Z-0.000 F480.000
G1 X148.895 Y29.747 Z-0.000 F480.000
G1 X148.829 Y29.581 Z-0.000 F480.000
G1 X148.756 Y29.412 Z-0.000 F480.000
G1 X148.677 Y29.242 Z-0.000 F480.000
G1 X148.590 Y29.070 Z-0.000 F480.000
G1 X148.497 Y28.896 Z-0.000 F480.000
G1 X148.396 Y28.720 Z-0.000 F480.000
G1 X148.289 Y28.542 Z-0.000 F480.000
G1 X148.175 Y28.362 Z-0.000 F480.000
G1 X148.054 Y28.181 Z-0.000 F480.000
G1 X147.926 Y27.997 Z-0.000 F480.000
G1 X147.926 Y27.997 Z-0.000 F480.000
G1 X147.787 Y27.807 Z-0.000 F480.000
G1 X147.631 Y27.605 Z-0.000 F480.000
G1 X147.459 Y27.391 Z-0.000 F480.000
G1 X147.271 Y27.165 Z-0.000 F480.000
G1 X147.067 Y26.927 Z-0.000 F480.000
G1 X146.846 Y26.677 Z-0.000 F480.000
G1 X146.609 Y26.416 Z-0.000 F480.000
G1 X146.356 Y26.142 Z-0.000 F480.000
G1 X146.087 Y25.857 Z-0.000 F480.000
G1 X145.801 Y25.560 Z-0.000 F480.000
G1 X143.973 Y23.341 Z-0.000 F480.000
G1 X149.567 Y23.341 Z-0.000 F480.000
G1 X149.567 Y20.747 Z-0.000 F480.000
G4 P10.000
G0 X149.567 Y20.747 Z3.000 F300.000
G0 X158.223 Y30.013 Z3.000 F1200.000
G0 X158.223 Y30.013 Z-0.000 F300.000
G1 X158.223 Y30.013 Z-0.000 F480.000
G1 X158.223 Y30.013 Z-0.000 F480.000
G1 X158.219 Y30.321 Z-0.000 F480.000
G1 X158.207 Y30.612 Z-0.000 F480.000
G1 X158.187 Y30.888 Z-0.000 F480.000
G1 X158.158 Y31.148 Z-0.000 F480.000
G1 X158.122 Y31.392 Z-0.000 F480.000
G1 X158.077 Y31.620 Z-0.000 F480.000
G1 X158.024 Y31.832 Z-0.000 F480.000
G1 X157.963 Y32.028 Z-0.000 F480.000
G1 X157.894 Y32.208 Z-0.000 F480.000
G1 X157.817 Y32.372 Z-0.000 F480.000
G1 X157.817 Y32.372 Z-0.000 F480.000
G1 X157.734 Y32.521 Z-0.000 F480.000
G1 X157.641 Y32.654 Z-0.000 F480.000
G1 X157.539 Y32.771 Z-0.000 F480.000
G1 X157.427 Y32.872 Z-0.000 F480.000
G1 X157.305 Y32.958 Z-0.000 F480.000
G1 X157.174 Y33.029 Z-0.000 F480.000
G1 X157.033 Y33.083 Z-0.000 F480.000
G1 X156.882 Y33.122 Z-0.000 F480.000
G1 X156.722 Y33.146 Z-0.000 F480.000
G1 X156.551 Y33.154 Z-0.000 F480.000
G1 X156.551 Y33.154 Z-0.000 F480.000
G1 X156.387 Y33.146 Z-0.000 F480.000
G1 X156.232 Y33.124 Z-0.000 F480.000
G1 X156.086 Y33.088 Z-0.000 F480.000
G1 X155.949 Y33.036 Z-0.000 F480.000
G1 X155.821 Y32.970 Z-0.000 F480.000
G1 X155.702 Y32.889 Z-0.000 F480.000
G1 X155.592 Y32.794 Z-0.000 F480.000
G1 X155.491 Y32.684 Z-0.000 F480.000
G1 X155.400 Y32.559 Z-0.000 F480.000
G1 X155.317 Y32.419 Z-0.000 F480.000
G1 X155.317 Y32.419 Z-0.000 F480.000
G1 X155.242 Y32.268 Z-0.000 F480.000
G1 X155.175 Y32.102 Z-0.000 F480.000
G1 X155.115 Y31.921 Z-0.000 F480.000
G1 X155.062 Y31.724 Z-0.000 F480.000
G1 X155.016 Y31.513 Z-0.000 F480.000
G1 X154.978 Y31.287 Z-0.000 F480.000
G1 X154.946 Y31.046 Z-0.000 F480.000
G1 X154.922 Y30.789 Z-0.000 F480.000
G1 X154.905 Y30.518 Z-0.000 F480.000
G1 X154.895 Y30.232 Z-0.000 F480.000
G1 X154.895 Y26.497 Z-0.000 F480.000
G1 X154.895 Y26.497 Z-0.000 F480.000
G1 X154.899 Y26.181 Z-0.000 F480.000
G1 X154.911 Y25.882 Z-0.000 F480.000
G1 X154.932 Y25.600 Z-0.000 F480.000
G1 X154.960 Y25.335 Z-0.000 F480.000
G1 X154.997 Y25.087 Z-0.000 F480.000
G1 X155.041 Y24.857 Z-0.000 F480.000
G1 X155.094 Y24.644 Z-0.000 F480.000
G1 X155.155 Y24.447 Z-0.000 F480.000
G1 X155.224 Y24.269 Z-0.000 F480.000
G1 X155.301 Y24.107 Z-0.000 F480.000
G1 X155.301 Y24.107 Z-0.000 F480.000
G1 X155.387 Y23.961 Z-0.000 F480.000
G1 X155.482 Y23.831 Z-0.000 F480.000
G1 X155.586 Y23.716 Z-0.000 F480.000
G1 X155.699 Y23.617 Z-0.000 F480.000
G1 X155.821 Y23.533 Z-0.000 F480.000
G1 X155.952 Y23.464 Z-0.000 F480.000
G1 X156.092 Y23.410 Z-0.000 F480.000
G1 X156.241 Y23.372 Z-0.000 F480.000
G1 X156.400 Y23.349 Z-0.000 F480.000
G1 X156.567 Y23.341 Z-0.000 F480.000
G1 X156.567 Y23.341 Z-0.000 F480.000
G1 X156.731 Y23.349 Z-0.000 F480.000
G1 X156.886 Y23.371 Z-0.000 F480.000
G1 X157.032 Y23.407 Z-0.000 F480.000
G1 X157.169 Y23.459 Z-0.000 F480.000
G1 X157.297 Y23.525 Z-0.000 F480.000
G1 X157.416 Y23.606 Z-0.000 F480.000
G1 X157.526 Y23.701 Z-0.000 F480.000
G1 X157.627 Y23.811 Z-0.000 F480.000
G1 X157.719 Y23.936 Z-0.000 F480.000
G1 X157.801 Y24.076 Z-0.000 F480.000
G1 X157.801 Y24.076 Z-0.000 F480.000
G1 X157.879 Y24.234 Z-0.000 F480.000
G1 X157.948 Y24.408 Z-0.000 F480.000
G1 X158.010 Y24.599 Z-0.000 F480.000
G1 X158.064 Y24.806 Z-0.000 F480.000
G1 X158.110 Y25.029 Z-0.000 F480.000
G1 X158.148 Y25.268 Z-0.000 F480.000
G1 X158.179 Y25.524 Z-0.000 F480.000
G1 X158.201 Y25.796 Z-0.000 F480.000
G1 X158.216 Y26.084 Z-0.000 F480.000
G1 X158.223 Y26.388 Z-0.000 F480.000
G1 X158.223 Y30.013 Z-0.000 F480.000
G4 P10.000
G0 X158.223 Y30.013 Z3.000 F300.000
G0 X161.520 Y26.919 Z3.000 F1200.000
G0 X161.520 Y26.919 Z-0.000 F300.000
G1 X161.520 Y26.919 Z-0.000 F480.000
G1 X161.520 Y26.919 Z-0.000 F480.000
G1 X161.507 Y26.342 Z-0.000 F480.000
G1 X161.468 Y25.792 Z-0.000 F480.000
G1 X161.403 Y25.268 Z-0.000 F480.000
G1 X161.313 Y24.772 Z-0.000 F480.000
G1 X161.196 Y24.302 Z-0.000 F480.000
G1 X161.053 Y23.859 Z-0.000 F480.000
G1 X160.885 Y23.443 Z-0.000 F480.000
G1 X160.690 Y23.054 Z-0.000 F480.000
G1 X160.470 Y22.692 Z-0.000 F480.000
G1 X160.223 Y22.357 Z-0.000 F480.000
G1 X160.223 Y22.357 Z-0.000 F480.000
G1 X159.953 Y22.051 Z-0.000 F480.000
G1 X159.662 Y21.777 Z-0.000 F480.000
G1 X159.349 Y21.536 Z-0.000 F480.000
G1 X159.016 Y21.327 Z-0.000 F480.000
G1 X158.661 Y21.150 Z-0.000 F480.000
G1 X158.284 Y21.005 Z-0.000 F480.000
G1 X157.887 Y20.892 Z-0.000 F480.000
G1 X157.468 Y20.812 Z-0.000 F480.000
G1 X157.028 Y20.764 Z-0.000 F480.000
G1 X156.567 Y20.747 Z-0.000 F480.000
G1 X156.567 Y20.747 Z-0.000 F480.000
G1 X156.103 Y20.764 Z-0.000 F480.000
G1 X155.660 Y20.812 Z-0.000 F480.000
G1 X155.239 Y20.892 Z-0.000 F480.000
G1 X154.839 Y21.005 Z-0.000 F480.000
G1 X154.462 Y21.150 Z-0.000 F480.000
G1 X154.105 Y21.327 Z-0.000 F480.000
G1 X153.770 Y21.536 Z-0.000 F480.000
G1 X153.457 Y21.777 Z-0.000 F480.000
G1 X153.165 Y22.051 Z-0.000 F480.000
G1 X152.895 Y22.357 Z-0.000 F480.000
G1 X152.895 Y22.357 Z-0.000 F480.000
G1 X152.649 Y22.695 Z-0.000 F480.000
G1 X152.428 Y23.059 Z-0.000 F480.000
G1 X152.234 Y23.450 Z-0.000 F480.000
G1 X152.065 Y23.867 Z-0.000 F480.000
G1 X151.922 Y24.310 Z-0.000 F480.000
G1 X151.806 Y24.779 Z-0.000 F480.000
G1 X151.715 Y25.275 Z-0.000 F480.000
G1 X151.650 Y25.797 Z-0.000 F480.000
G1 X151.611 Y26.345 Z-0.000 F480.000
G1 X151.598 Y26.919 Z-0.000 F480.000
G1 X151.598 Y29.576 Z-0.000 F480.000
G1 X151.598 Y29.576 Z-0.000 F480.000
G1 X151.611 Y30.153 Z-0.000 F480.000
G1 X151.650 Y30.703 Z-0.000 F480.000
G1 X151.715 Y31.227 Z-0.000 F480.000
G1 X151.806 Y31.723 Z-0.000 F480.000
G1 X151.922 Y32.193 Z-0.000 F480.000
G1 X152.065 Y32.636 Z-0.000 F480.000
G1 X152.234 Y33.052 Z-0.000 F480.000
G1 X152.428 Y33.441 Z-0.000 F480.000
G1 X152.649 Y33.803 Z-0.000 F480.000
G1 X152.895 Y34.138 Z-0.000 F480.000
G1 X152.895 Y34.138 Z-0.000 F480.000
G1 X153.165 Y34.444 Z-0.000 F480.000
G1 X153.456 Y34.717 Z-0.000 F480.000
G1 X153.769 Y34.959 Z-0.000 F480.000
G1 X154.103 Y35.168 Z-0.000 F480.000
G1 X154.458 Y35.345 Z-0.000 F480.000
G1 X154.834 Y35.490 Z-0.000 F480.000
G1 X155.231 Y35.603 Z-0.000 F480.000
G1 X155.650 Y35.683 Z-0.000 F480.000
G1 X156.090 Y35.731 Z-0.000 F480.000
G1 X156.551 Y35.747 Z-0.000 F480.000
G1 X156.551 Y35.747 Z-0.000 F480.000
G1 X157.013 Y35.731 Z-0.000 F480.000
G1 X157.453 Y35.682 Z-0.000 F480.000
G1 X157.871 Y35.601 Z-0.000 F480.000
G1 X158.269 Y35.487 Z-0.000 F480.000
G1 X158.645 Y35.341 Z-0.000 F480.000
G1 X159.000 Y35.162 Z-0.000 F480.000
G1 X159.334 Y34.951 Z-0.000 F480.000
G1 X159.646 Y34.707 Z-0.000 F480.000
G1 X159.938 Y34.431 Z-0.000 F480.000
G1 X160.208 Y34.122 Z-0.000 F480.000
G1 X160.208 Y34.122 Z-0.000 F480.000
G1 X160.457 Y33.787 Z-0.000 F480.000
G1 X160.680 Y33.425 Z-0.000 F480.000
G1 X160.877 Y33.036 Z-0.000 F480.000
G1 X161.048 Y32.620 Z-0.000 F480.000
G1 X161.192 Y32.177 Z-0.000 F480.000
G1 X161.310 Y31.707 Z-0.000 F480.000
G1 X161.402 Y31.211 Z-0.000 F480.000
G1 X161.468 Y30.687 Z-0.000 F480.000
G1 X161.507 Y30.137 Z-0.000 F480.000
G1 X161.520 Y29.560 Z-0.000 F480.000
G1 X161.520 Y26.919 Z-0.000 F480.000
G4 P10.000
G0 X161.520 Y26.919 Z3.000 F300.000
G0 X178.455 Y21.653 Z3.000 F1200.000
G0 X178.455 Y21.653 Z-0.000 F300.000
G1 X178.455 Y21.653 Z-0.000 F480.000
G1 X168.534 Y21.653 Z-0.000 F480.000
G1 X168.534 Y23.840 Z-0.000 F480.000
G1 X173.096 Y28.887 Z-0.000 F480.000
G1 X173.096 Y28.887 Z-0.000 F480.000
G1 X173.417 Y29.282 Z-0.000 F480.000
G1 X173.704 Y29.661 Z-0.000 F480.000
G1 X173.957 Y30.023 Z-0.000 F480.000
G1 X174.176 Y30.370 Z-0.000 F480.000
G1 X174.362 Y30.700 Z-0.000 F480.000
G1 X174.514 Y31.013 Z-0.000 F480.000
G1 X174.632 Y31.311 Z-0.000 F480.000
G1 X174.716 Y31.592 Z-0.000 F480.000
G1 X174.767 Y31.857 Z-0.000 F480.000
G1 X174.784 Y32.106 Z-0.000 F480.000
G1 X174.784 Y32.106 Z-0.000 F480.000
G1 X174.780 Y32.292 Z-0.000 F480.000
G1 X174.767 Y32.469 Z-0.000 F480.000
G1 X174.747 Y32.637 Z-0.000 F480.000
G1 X174.719 Y32.796 Z-0.000 F480.000
G1 X174.682 Y32.946 Z-0.000 F480.000
G1 X174.637 Y33.087 Z-0.000 F480.000
G1 X174.585 Y33.218 Z-0.000 F480.000
G1 X174.524 Y33.341 Z-0.000 F480.000
G1 X174.455 Y33.455 Z-0.000 F480.000
G1 X174.377 Y33.559 Z-0.000 F480.000
G1 X174.377 Y33.559 Z-0.000 F480.000
G1 X174.296 Y33.654 Z-0.000 F480.000
G1 X174.206 Y33.739 Z-0.000 F480.000
G1 X174.109 Y33.814 Z-0.000 F480.000
G1 X174.005 Y33.879 Z-0.000 F480.000
G1 X173.893 Y33.934 Z-0.000 F480.000
G1 X173.774 Y33.979 Z-0.000 F480.000
G1 X173.647 Y34.014 Z-0.000 F480.000
G1 X173.512 Y34.039 Z-0.000 F480.000
G1 X173.370 Y34.054 Z-0.000 F480.000
G1 X173.221 Y34.059 Z-0.000 F480.000
G1 X173.221 Y34.059 Z-0.000 F480.000
G1 X173.074 Y34.052 Z-0.000 F480.000
G1 X172.932 Y34.032 Z-0.000 F480.000
G1 X172.796 Y33.999 Z-0.000 F480.000
G1 X172.666 Y33.952 Z-0.000 F480.000
G1 X172.541 Y33.891 Z-0.000 F480.000
G1 X172.422 Y33.817 Z-0.000 F480.000
G1 X172.309 Y33.730 Z-0.000 F480.000
G1 X172.201 Y33.629 Z-0.000 F480.000
G1 X172.099 Y33.515 Z-0.000 F480.000
G1 X172.002 Y33.387 Z-0.000 F480.000
G1 X172.002 Y33.387 Z-0.000 F480.000
G1 X171.913 Y33.252 Z-0.000 F480.000
G1 X171.834 Y33.110 Z-0.000 F480.000
G1 X171.763 Y32.961 Z-0.000 F480.000
G1 X171.702 Y32.805 Z-0.000 F480.000
G1 X171.651 Y32.641 Z-0.000 F480.000
G1 X171.609 Y32.470 Z-0.000 F480.000
G1 X171.576 Y32.292 Z-0.000 F480.000
G1 X171.552 Y32.107 Z-0.000 F480.000
G1 X171.538 Y31.915 Z-0.000 F480.000
G1 X171.534 Y31.715 Z-0.000 F480.000
G1 X168.237 Y31.715 Z-0.000 F480.000
G1 X168.237 Y31.715 Z-0.000 F480.000
G1 X168.243 Y31.985 Z-0.000 F480.000
G1 X168.263 Y32.250 Z-0.000 F480.000
G1 X168.296 Y32.511 Z-0.000 F480.000
G1 X168.342 Y32.768 Z-0.000 F480.000
G1 X168.401 Y33.020 Z-0.000 F480.000
G1 X168.473 Y33.268 Z-0.000 F480.000
G1 X168.558 Y33.511 Z-0.000 F480.000
G1 X168.657 Y33.750 Z-0.000 F480.000
G1 X168.768 Y33.985 Z-0.000 F480.000
G1 X168.893 Y34.215 Z-0.000 F480.000
G1 X168.893 Y34.215 Z-0.000 F480.000
G1 X169.029 Y34.438 Z-0.000 F480.000
G1 X169.175 Y34.652 Z-0.000 F480.000
G1 X169.332 Y34.855 Z-0.000 F480.000
G1 X169.498 Y35.048 Z-0.000 F480.000
G1 X169.674 Y35.231 Z-0.000 F480.000
G1 X169.861 Y35.404 Z-0.000 F480.000
G1 X170.057 Y35.567 Z-0.000 F480.000
G1 X170.263 Y35.720 Z-0.000 F480.000
G1 X170.479 Y35.863 Z-0.000 F480.000
G1 X170.705 Y35.997 Z-0.000 F480.000
G1 X170.705 Y35.997 Z-0.000 F480.000
G1 X170.940 Y36.121 Z-0.000 F480.000
G1 X171.179 Y36.233 Z-0.000 F480.000
G1 X171.425 Y36.331 Z-0.000 F480.000
G1 X171.675 Y36.417 Z-0.000 F480.000
G1 X171.932 Y36.489 Z-0.000 F480.000
G1 X172.194 Y36.548 Z-0.000 F480.000
G1 X172.462 Y36.594 Z-0.000 F480.000
G1 X172.736 Y36.627 Z-0.000 F480.000
G1 X173.015 Y36.646 Z-0.000 F480.000
G1 X173.299 Y36.653 Z-0.000 F480.000
G1 X173.299 Y36.653 Z-0.000 F480.000
G1 X173.751 Y36.642 Z-0.000 F480.000
G1 X174.181 Y36.608 Z-0.000 F480.000
G1 X174.590 Y36.553 Z-0.000 F480.000
G1 X174.977 Y36.475 Z-0.000 F480.000
G1 X175.342 Y36.375 Z-0.000 F480.000
G1 X175.686 Y36.253 Z-0.000 F480.000
G1 X176.008 Y36.109 Z-0.000 F480.000
G1 X176.309 Y35.943 Z-0.000 F480.000
G1 X176.588 Y35.754 Z-0.000 F480.000
G1 X176.846 Y35.543 Z-0.000 F480.000
G1 X176.846 Y35.543 Z-0.000 F480.000
G1 X177.084 Y35.312 Z-0.000 F480.000
G1 X177.296 Y35.061 Z-0.000 F480.000
G1 X177.484 Y34.791 Z-0.000 F480.000
G1 X177.646 Y34.501 Z-0.000 F480.000
G1 X177.784 Y34.192 Z-0.000 F480.000
G1 X177.896 Y33.863 Z-0.000 F480.000
G1 X177.984 Y33.516 Z-0.000 F480.000
G1 X178.046 Y33.148 Z-0.000 F480.000
G1 X178.084 Y32.762 Z-0.000 F480.000
G1 X178.096 Y32.356 Z-0.000 F480.000
G1 X178.096 Y32.356 Z-0.000 F480.000
G1 X178.093 Y32.181 Z-0.000 F480.000
G1 X178.084 Y32.008 Z-0.000 F480.000
G1 X178.068 Y31.835 Z-0.000 F480.000
G1 X178.046 Y31.663 Z-0.000 F480.000
G1 X178.018 Y31.493 Z-0.000 F480.000
G1 X177.984 Y31.323 Z-0.000 F480.000
G1 X177.943 Y31.154 Z-0.000 F480.000
G1 X177.896 Y30.986 Z-0.000 F480.000
G1 X177.843 Y30.819 Z-0.000 F480.000
G1 X177.784 Y30.653 Z-0.000 F480.000
G1 X177.784 Y30.653 Z-0.000 F480.000
G1 X177.718 Y30.486 Z-0.000 F480.000
G1 X177.645 Y30.318 Z-0.000 F480.000
G1 X177.565 Y30.148 Z-0.000 F480.000
G1 X177.479 Y29.975 Z-0.000 F480.000
G1 X177.385 Y29.801 Z-0.000 F480.000
G1 X177.285 Y29.625 Z-0.000 F480.000
G1 X177.178 Y29.448 Z-0.000 F480.000
G1 X177.064 Y29.268 Z-0.000 F480.000
G1 X176.943 Y29.086 Z-0.000 F480.000
G1 X176.815 Y28.903 Z-0.000 F480.000
G1 X176.815 Y28.903 Z-0.000 F480.000
G1 X176.675 Y28.713 Z-0.000 F480.000
G1 X176.520 Y28.510 Z-0.000 F480.000
G1 X176.348 Y28.296 Z-0.000 F480.000
G1 X176.160 Y28.070 Z-0.000 F480.000
G1 X175.955 Y27.833 Z-0.000 F480.000
G1 X175.735 Y27.583 Z-0.000 F480.000
G1 X175.498 Y27.321 Z-0.000 F480.000
G1 X175.245 Y27.048 Z-0.000 F480.000
G1 X174.975 Y26.763 Z-0.000 F480.000
G1 X174.690 Y26.465 Z-0.000 F480.000
G1 X172.862 Y24.247 Z-0.000 F480.000
G1 X178.455 Y24.247 Z-0.000 F480.000
G1 X178.455 Y21.653 Z-0.000 F480.000
G4 P10.000
G0 X178.455 Y21.653 Z3.000 F300.000
G0 X180.721 Y29.168 Z3.000 F1200.000
G0 X180.721 Y29.168 Z-0.000 F300.000
G1 X180.721 Y29.168 Z-0.000 F480.000
G1 X181.596 Y36.653 Z-0.000 F480.000
G1 X189.909 Y36.653 Z-0.000 F480.000
G1 X189.909 Y34.043 Z-0.000 F480.000
G1 X184.268 Y34.043 Z-0.000 F480.000
G1 X183.940 Y31.122 Z-0.000 F480.000
G1 X183.940 Y31.122 Z-0.000 F480.000
G1 X184.014 Y31.162 Z-0.000 F480.000
G1 X184.092 Y31.201 Z-0.000 F480.000
G1 X184.174 Y31.239 Z-0.000 F480.000
G1 X184.260 Y31.277 Z-0.000 F480.000
G1 X184.350 Y31.313 Z-0.000 F480.000
G1 X184.444 Y31.348 Z-0.000 F480.000
G1 X184.543 Y31.383 Z-0.000 F480.000
G1 X184.645 Y31.417 Z-0.000 F480.000
G1 X184.751 Y31.449 Z-0.000 F480.000
G1 X184.862 Y31.481 Z-0.000 F480.000
G1 X184.862 Y31.481 Z-0.000 F480.000
G1 X184.977 Y31.514 Z-0.000 F480.000
G1 X185.092 Y31.543 Z-0.000 F480.000
G1 X185.206 Y31.569 Z-0.000 F480.000
G1 X185.319 Y31.591 Z-0.000 F480.000
G1 X185.432 Y31.610 Z-0.000 F480.000
G1 X185.544 Y31.625 Z-0.000 F480.000
G1 X185.656 Y31.637 Z-0.000 F480.000
G1 X185.767 Y31.646 Z-0.000 F480.000
G1 X185.877 Y31.651 Z-0.000 F480.000
G1 X185.987 Y31.653 Z-0.000 F480.000
G1 X185.987 Y31.653 Z-0.000 F480.000
G1 X186.402 Y31.640 Z-0.000 F480.000
G1 X186.797 Y31.600 Z-0.000 F480.000
G1 X187.172 Y31.535 Z-0.000 F480.000
G1 X187.527 Y31.443 Z-0.000 F480.000
G1 X187.862 Y31.325 Z-0.000 F480.000
G1 X188.177 Y31.180 Z-0.000 F480.000
G1 X188.472 Y31.010 Z-0.000 F480.000
G1 X188.747 Y30.813 Z-0.000 F480.000
G1 X189.002 Y30.590 Z-0.000 F480.000
G1 X189.237 Y30.340 Z-0.000 F480.000
G1 X189.237 Y30.340 Z-0.000 F480.000
G1 X189.453 Y30.067 Z-0.000 F480.000
G1 X189.647 Y29.773 Z-0.000 F480.000
G1 X189.818 Y29.459 Z-0.000 F480.000
G1 X189.967 Y29.123 Z-0.000 F480.000
G1 X190.092 Y28.766 Z-0.000 F480.000
G1 X190.195 Y28.388 Z-0.000 F480.000
G1 X190.275 Y27.990 Z-0.000 F480.000
G1 X190.332 Y27.570 Z-0.000 F480.000
G1 X190.366 Y27.130 Z-0.000 F480.000
G1 X190.377 Y26.668 Z-0.000 F480.000
G1 X190.377 Y26.668 Z-0.000 F480.000
G1 X190.371 Y26.381 Z-0.000 F480.000
G1 X190.353 Y26.099 Z-0.000 F480.000
G1 X190.323 Y25.823 Z-0.000 F480.000
G1 X190.280 Y25.553 Z-0.000 F480.000
G1 X190.225 Y25.290 Z-0.000 F480.000
G1 X190.158 Y25.032 Z-0.000 F480.000
G1 X190.079 Y24.780 Z-0.000 F480.000
G1 X189.987 Y24.533 Z-0.000 F480.000
G1 X189.884 Y24.293 Z-0.000 F480.000
G1 X189.768 Y24.059 Z-0.000 F480.000
G1 X189.768 Y24.059 Z-0.000 F480.000
G1 X189.641 Y23.833 Z-0.000 F480.000
G1 X189.504 Y23.618 Z-0.000 F480.000
G1 X189.357 Y23.413 Z-0.000 F480.000
G1 X189.201 Y23.219 Z-0.000 F480.000
G1 X189.034 Y23.036 Z-0.000 F480.000
G1 X188.857 Y22.863 Z-0.000 F480.000
G1 X188.670 Y22.701 Z-0.000 F480.000
G1 X188.473 Y22.549 Z-0.000 F480.000
G1 X188.266 Y22.408 Z-0.000 F480.000
G1 X188.049 Y22.278 Z-0.000 F480.000
G1 X188.049 Y22.278 Z-0.000 F480.000
G1 X187.826 Y22.159 Z-0.000 F480.000
G1 X187.595 Y22.053 Z-0.000 F480.000
G1 X187.356 Y21.959 Z-0.000 F480.000
G1 X187.109 Y21.878 Z-0.000 F480.000
G1 X186.854 Y21.809 Z-0.000 F480.000
G1 X186.590 Y21.753 Z-0.000 F480.000
G1 X186.319 Y21.709 Z-0.000 F480.000
G1 X186.039 Y21.678 Z-0.000 F480.000
G1 X185.751 Y21.659 Z-0.000 F480.000
G1 X185.455 Y21.653 Z-0.000 F480.000
G1 X185.455 Y21.653 Z-0.000 F480.000
G1 X185.188 Y21.658 Z-0.000 F480.000
G1 X184.925 Y21.675 Z-0.000 F480.000
G1 X184.665 Y21.703 Z-0.000 F480.000
G1 X184.408 Y21.743 Z-0.000 F480.000
G1 X184.155 Y21.793 Z-0.000 F480.000
G1 X183.905 Y21.855 Z-0.000 F480.000
G1 X183.658 Y21.928 Z-0.000 F480.000
G1 X183.415 Y22.013 Z-0.000 F480.000
G1 X183.176 Y22.108 Z-0.000 F480.000
G1 X182.940 Y22.215 Z-0.000 F480.000
G1 X182.940 Y22.215 Z-0.000 F480.000
G1 X182.710 Y22.335 Z-0.000 F480.000
G1 X182.491 Y22.463 Z-0.000 F480.000
G1 X182.282 Y22.600 Z-0.000 F480.000
G1 X182.082 Y22.745 Z-0.000 F480.000
G1 X181.893 Y22.899 Z-0.000 F480.000
G1 X181.714 Y23.061 Z-0.000 F480.000
G1 X181.544 Y23.231 Z-0.000 F480.000
G1 X181.385 Y23.410 Z-0.000 F480.000
G1 X181.235 Y23.598 Z-0.000 F480.000
G1 X181.096 Y23.793 Z-0.000 F480.000
G1 X181.096 Y23.793 Z-0.000 F480.000
G1 X180.972 Y23.999 Z-0.000 F480.000
G1 X180.861 Y24.209 Z-0.000 F480.000
G1 X180.763 Y24.424 Z-0.000 F480.000
G1 X180.679 Y24.643 Z-0.000 F480.000
G1 X180.608 Y24.868 Z-0.000 F480.000
G1 X180.550 Y25.097 Z-0.000 F480.000
G1 X180.507 Y25.330 Z-0.000 F480.000
G1 X180.476 Y25.568 Z-0.000 F480.000
G1 X180.459 Y25.811 Z-0.000 F480.000
G1 X180.455 Y26.059 Z-0.000 F480.000
G1 X183.752 Y26.059 Z-0.000 F480.000
G1 X183.752 Y26.059 Z-0.000 F480.000
G1 X183.766 Y25.897 Z-0.000 F480.000
G1 X183.787 Y25.741 Z-0.000 F480.000
G1 X183.817 Y25.592 Z-0.000 F480.000
G1 X183.855 Y25.449 Z-0.000 F480.000
G1 X183.901 Y25.313 Z-0.000 F480.000
G1 X183.955 Y25.183 Z-0.000 F480.000
G1 X184.017 Y25.060 Z-0.000 F480.000
G1 X184.087 Y24.944 Z-0.000 F480.000
G1 X184.166 Y24.834 Z-0.000 F480.000
G1 X184.252 Y24.731 Z-0.000 F480.000
G1 X184.252 Y24.731 Z-0.000 F480.000
G1 X184.346 Y24.639 Z-0.000 F480.000
G1 X184.444 Y24.557 Z-0.000 F480.000
G1 X184.548 Y24.484 Z-0.000 F480.000
G1 X184.657 Y24.421 Z-0.000 F480.000
G1 X184.772 Y24.368 Z-0.000 F480.000
G1 X184.892 Y24.324 Z-0.000 F480.000
G1 X185.017 Y24.290 Z-0.000 F480.000
G1 X185.147 Y24.266 Z-0.000 F480.000
G1 X185.283 Y24.251 Z-0.000 F480.000
G1 X185.424 Y24.247 Z-0.000 F480.000
G1 X185.424 Y24.247 Z-0.000 F480.000
G1 X185.742 Y24.273 Z-0.000 F480.000
G1 X186.026 Y24.352 Z-0.000 F480.000
G1 X186.277 Y24.484 Z-0.000 F480.000
G1 X186.494 Y24.669 Z-0.000 F480.000
G1 X186.678 Y24.907 Z-0.000 F480.000
G1 X186.829 Y25.197 Z-0.000 F480.000
G1 X186.946 Y25.540 Z-0.000 F480.000
G1 X187.029 Y25.937 Z-0.000 F480.000
G1 X187.079 Y26.385 Z-0.000 F480.000
G1 X187.096 Y26.887 Z-0.000 F480.000
G1 X187.096 Y26.887 Z-0.000 F480.000
G1 X187.076 Y27.350 Z-0.000 F480.000
G1 X187.015 Y27.765 Z-0.000 F480.000
G1 X186.913 Y28.130 Z-0.000 F480.000
G1 X186.771 Y28.447 Z-0.000 F480.000
G1 X186.588 Y28.715 Z-0.000 F480.000
G1 X186.365 Y28.935 Z-0.000 F480.000
G1 X186.101 Y29.105 Z-0.000 F480.000
G1 X185.796 Y29.227 Z-0.000 F480.000
G1 X185.451 Y29.300 Z-0.000 F480.000
G1 X185.065 Y29.325 Z-0.000 F480.000
G1 X185.065 Y29.325 Z-0.000 F480.000
G1 X184.840 Y29.317 Z-0.000 F480.000
G1 X184.626 Y29.293 Z-0.000 F480.000
G1 X184.425 Y29.253 Z-0.000 F480.000
G1 X184.235 Y29.197 Z-0.000 F480.000
G1 X184.057 Y29.125 Z-0.000 F480.000
G1 X183.891 Y29.038 Z-0.000 F480.000
G1 X183.737 Y28.934 Z-0.000 F480.000
G1 X183.595 Y28.815 Z-0.000 F480.000
G1 X183.465 Y28.679 Z-0.000 F480.000
G1 X183.346 Y28.528 Z-0.000 F480.000
G1 X180.721 Y29.168 Z-0.000 F480.000
G4 P10.000
G0 X180.721 Y29.168 Z3.000 F300.000
G0 X201.313 Y30.053 Z3.000 F1200.000
G0 X201.313 Y30.053 Z-0.000 F300.000
G1 X201.313 Y30.053 Z-0.000 F480.000
G1 X202.875 Y30.053 Z-0.000 F480.000
G1 X202.875 Y30.053 Z-0.000 F480.000
G1 X203.225 Y30.071 Z-0.000 F480.000
G1 X203.539 Y30.126 Z-0.000 F480.000
G1 X203.815 Y30.216 Z-0.000 F480.000
G1 X204.055 Y30.343 Z-0.000 F480.000
G1 X204.258 Y30.506 Z-0.000 F480.000
G1 X204.424 Y30.706 Z-0.000 F480.000
G1 X204.553 Y30.941 Z-0.000 F480.000
G1 X204.645 Y31.213 Z-0.000 F480.000
G1 X204.700 Y31.521 Z-0.000 F480.000
G1 X204.719 Y31.866 Z-0.000 F480.000
G1 X204.719 Y31.866 Z-0.000 F480.000
G1 X204.714 Y32.004 Z-0.000 F480.000
G1 X204.701 Y32.136 Z-0.000 F480.000
G1 X204.678 Y32.264 Z-0.000 F480.000
G1 X204.646 Y32.386 Z-0.000 F480.000
G1 X204.606 Y32.502 Z-0.000 F480.000
G1 X204.556 Y32.614 Z-0.000 F480.000
G1 X204.497 Y32.720 Z-0.000 F480.000
G1 X204.429 Y32.821 Z-0.000 F480.000
G1 X204.352 Y32.916 Z-0.000 F480.000
G1 X204.266 Y33.006 Z-0.000 F480.000
G1 X204.266 Y33.006 Z-0.000 F480.000
G1 X204.175 Y33.092 Z-0.000 F480.000
G1 X204.076 Y33.169 Z-0.000 F480.000
G1 X203.971 Y33.237 Z-0.000 F480.000
G1 X203.858 Y33.296 Z-0.000 F480.000
G1 X203.738 Y33.346 Z-0.000 F480.000
G1 X203.611 Y33.387 Z-0.000 F480.000
G1 X203.477 Y33.419 Z-0.000 F480.000
G1 X203.336 Y33.441 Z-0.000 F480.000
G1 X203.187 Y33.455 Z-0.000 F480.000
G1 X203.031 Y33.459 Z-0.000 F480.000
G1 X203.031 Y33.459 Z-0.000 F480.000
G1 X202.902 Y33.455 Z-0.000 F480.000
G1 X202.776 Y33.444 Z-0.000 F480.000
G1 X202.653 Y33.424 Z-0.000 F480.000
G1 X202.534 Y33.397 Z-0.000 F480.000
G1 X202.418 Y33.362 Z-0.000 F480.000
G1 X202.306 Y33.319 Z-0.000 F480.000
G1 X202.197 Y33.268 Z-0.000 F480.000
G1 X202.091 Y33.209 Z-0.000 F480.000
G1 X201.989 Y33.143 Z-0.000 F480.000
G1 X201.891 Y33.069 Z-0.000 F480.000
G1 X201.891 Y33.069 Z-0.000 F480.000
G1 X201.799 Y32.992 Z-0.000 F480.000
G1 X201.716 Y32.911 Z-0.000 F480.000
G1 X201.644 Y32.827 Z-0.000 F480.000
G1 X201.581 Y32.739 Z-0.000 F480.000
G1 X201.528 Y32.647 Z-0.000 F480.000
G1 X201.484 Y32.551 Z-0.000 F480.000
G1 X201.450 Y32.452 Z-0.000 F480.000
G1 X201.426 Y32.349 Z-0.000 F480.000
G1 X201.411 Y32.242 Z-0.000 F480.000
G1 X201.406 Y32.131 Z-0.000 F480.000
G1 X198.125 Y32.131 Z-0.000 F480.000
G1 X198.125 Y32.131 Z-0.000 F480.000
G1 X198.131 Y32.357 Z-0.000 F480.000
G1 X198.150 Y32.578 Z-0.000 F480.000
G1 X198.181 Y32.793 Z-0.000 F480.000
G1 X198.225 Y33.004 Z-0.000 F480.000
G1 X198.281 Y33.209 Z-0.000 F480.000
G1 X198.350 Y33.410 Z-0.000 F480.000
G1 X198.431 Y33.606 Z-0.000 F480.000
G1 X198.525 Y33.796 Z-0.000 F480.000
G1 X198.631 Y33.982 Z-0.000 F480.000
G1 X198.750 Y34.163 Z-0.000 F480.000
G1 X198.750 Y34.163 Z-0.000 F480.000
G1 X198.880 Y34.340 Z-0.000 F480.000
G1 X199.020 Y34.508 Z-0.000 F480.000
G1 X199.169 Y34.668 Z-0.000 F480.000
G1 X199.328 Y34.820 Z-0.000 F480.000
G1 X199.496 Y34.963 Z-0.000 F480.000
G1 X199.675 Y35.098 Z-0.000 F480.000
G1 X199.863 Y35.225 Z-0.000 F480.000
G1 X200.060 Y35.343 Z-0.000 F480.000
G1 X200.268 Y35.452 Z-0.000 F480.000
G1 X200.485 Y35.553 Z-0.000 F480.000
G1 X200.485 Y35.553 Z-0.000 F480.000
G1 X200.709 Y35.648 Z-0.000 F480.000
G1 X200.937 Y35.733 Z-0.000 F480.000
G1 X201.170 Y35.808 Z-0.000 F480.000
G1 X201.407 Y35.873 Z-0.000 F480.000
G1 X201.649 Y35.928 Z-0.000 F480.000
G1 X201.895 Y35.973 Z-0.000 F480.000
G1 X202.145 Y36.008 Z-0.000 F480.000
G1 X202.400 Y36.033 Z-0.000 F480.000
G1 X202.659 Y36.048 Z-0.000 F480.000
G1 X202.922 Y36.053 Z-0.000 F480.000
G1 X202.922 Y36.053 Z-0.000 F480.000
G1 X203.387 Y36.042 Z-0.000 F480.000
G1 X203.831 Y36.009 Z-0.000 F480.000
G1 X204.254 Y35.953 Z-0.000 F480.000
G1 X204.657 Y35.876 Z-0.000 F480.000
G1 X205.039 Y35.776 Z-0.000 F480.000
G1 X205.401 Y35.654 Z-0.000 F480.000
G1 X205.742 Y35.510 Z-0.000 F480.000
G1 X206.062 Y35.343 Z-0.000 F480.000
G1 X206.362 Y35.155 Z-0.000 F480.000
G1 X206.641 Y34.944 Z-0.000 F480.000
G1 X206.641 Y34.944 Z-0.000 F480.000
G1 X206.899 Y34.717 Z-0.000 F480.000
G1 X207.130 Y34.474 Z-0.000 F480.000
G1 X207.334 Y34.214 Z-0.000 F480.000
G1 X207.511 Y33.939 Z-0.000 F480.000
G1 X207.660 Y33.647 Z-0.000 F480.000
G1 X207.783 Y33.339 Z-0.000 F480.000
G1 X207.878 Y33.014 Z-0.000 F480.000
G1 X207.946 Y32.674 Z-0.000 F480.000
G1 X207.987 Y32.317 Z-0.000 F480.000
G1 X208.000 Y31.944 Z-0.000 F480.000
G1 X208.000 Y31.944 Z-0.000 F480.000
G1 X207.995 Y31.760 Z-0.000 F480.000
G1 X207.978 Y31.579 Z-0.000 F480.000
G1 X207.950 Y31.399 Z-0.000 F480.000
G1 X207.910 Y31.221 Z-0.000 F480.000
G1 X207.860 Y31.045 Z-0.000 F480.000
G1 X207.798 Y30.871 Z-0.000 F480.000
G1 X207.725 Y30.699 Z-0.000 F480.000
G1 X207.640 Y30.529 Z-0.000 F480.000
G1 X207.545 Y30.360 Z-0.000 F480.000
G1 X207.438 Y30.194 Z-0.000 F480.000
G1 X207.438 Y30.194 Z-0.000 F480.000
G1 X207.320 Y30.031 Z-0.000 F480.000
G1 X207.193 Y29.875 Z-0.000 F480.000
G1 X207.055 Y29.725 Z-0.000 F480.000
G1 X206.908 Y29.581 Z-0.000 F480.000
G1 X206.750 Y29.444 Z-0.000 F480.000
G1 X206.583 Y29.313 Z-0.000 F480.000
G1 X206.405 Y29.188 Z-0.000 F480.000
G1 X206.218 Y29.069 Z-0.000 F480.000
G1 X206.020 Y28.956 Z-0.000 F480.000
G1 X205.813 Y28.850 Z-0.000 F480.000
G1 X205.813 Y28.850 Z-0.000 F480.000
G1 X206.033 Y28.761 Z-0.000 F480.000
G1 X206.243 Y28.663 Z-0.000 F480.000
G1 X206.444 Y28.556 Z-0.000 F480.000
G1 X206.635 Y28.440 Z-0.000 F480.000
G1 X206.817 Y28.315 Z-0.000 F480.000
G1 X206.988 Y28.181 Z-0.000 F480.000
G1 X207.150 Y28.037 Z-0.000 F480.000
G1 X207.303 Y27.885 Z-0.000 F480.000
G1 X207.445 Y27.724 Z-0.000 F480.000
G1 X207.578 Y27.553 Z-0.000 F480.000
G1 X207.578 Y27.553 Z-0.000 F480.000
G1 X207.703 Y27.377 Z-0.000 F480.000
G1 X207.815 Y27.192 Z-0.000 F480.000
G1 X207.913 Y26.998 Z-0.000 F480.000
G1 X207.998 Y26.796 Z-0.000 F480.000
G1 X208.070 Y26.584 Z-0.000 F480.000
G1 X208.130 Y26.364 Z-0.000 F480.000
G1 X208.175 Y26.136 Z-0.000 F480.000
G1 X208.208 Y25.898 Z-0.000 F480.000
G1 X208.228 Y25.652 Z-0.000 F480.000
G1 X208.235 Y25.397 Z-0.000 F480.000
G1 X208.235 Y25.397 Z-0.000 F480.000
G1 X208.220 Y25.011 Z-0.000 F480.000
G1 X208.176 Y24.641 Z-0.000 F480.000
G1 X208.102 Y24.286 Z-0.000 F480.000
G1 X208.000 Y23.947 Z-0.000 F480.000
G1 X207.867 Y23.623 Z-0.000 F480.000
G1 X207.706 Y23.316 Z-0.000 F480.000
G1 X207.515 Y23.023 Z-0.000 F480.000
G1 X207.295 Y22.747 Z-0.000 F480.000
G1 X207.045 Y22.486 Z-0.000 F480.000
G1 X206.766 Y22.241 Z-0.000 F480.000
G1 X206.766 Y22.241 Z-0.000 F480.000
G1 X206.463 Y22.015 Z-0.000 F480.000
G1 X206.142 Y21.813 Z-0.000 F480.000
G1 X205.803 Y21.635 Z-0.000 F480.000
G1 X205.446 Y21.481 Z-0.000 F480.000
G1 X205.070 Y21.350 Z-0.000 F480.000
G1 X204.677 Y21.243 Z-0.000 F480.000
G1 X204.265 Y21.160 Z-0.000 F480.000
G1 X203.836 Y21.101 Z-0.000 F480.000
G1 X203.388 Y21.065 Z-0.000 F480.000
G1 X202.922 Y21.053 Z-0.000 F480.000
G1 X202.922 Y21.053 Z-0.000 F480.000
G1 X202.643 Y21.059 Z-0.000 F480.000
G1 X202.368 Y21.075 Z-0.000 F480.000
G1 X202.097 Y21.102 Z-0.000 F480.000
G1 X201.830 Y21.141 Z-0.000 F480.000
G1 X201.567 Y21.190 Z-0.000 F480.000
G1 X201.308 Y21.250 Z-0.000 F480.000
G1 X201.053 Y21.321 Z-0.000 F480.000
G1 X200.802 Y21.403 Z-0.000 F480.000
G1 X200.555 Y21.496 Z-0.000 F480.000
G1 X200.313 Y21.600 Z-0.000 F480.000
G1 X200.313 Y21.600 Z-0.000 F480.000
G1 X200.081 Y21.717 Z-0.000 F480.000
G1 X199.860 Y21.841 Z-0.000 F480.000
G1 X199.651 Y21.974 Z-0.000 F480.000
G1 X199.453 Y22.115 Z-0.000 F480.000
G1 X199.266 Y22.264 Z-0.000 F480.000
G1 X199.090 Y22.421 Z-0.000 F480.000
G1 X198.926 Y22.587 Z-0.000 F480.000
G1 X198.773 Y22.760 Z-0.000 F480.000
G1 X198.631 Y22.942 Z-0.000 F480.000
G1 X198.500 Y23.131 Z-0.000 F480.000
G1 X198.500 Y23.131 Z-0.000 F480.000
G1 X198.384 Y23.331 Z-0.000 F480.000
G1 X198.281 Y23.536 Z-0.000 F480.000
G1 X198.189 Y23.746 Z-0.000 F480.000
G1 X198.110 Y23.961 Z-0.000 F480.000
G1 X198.043 Y24.182 Z-0.000 F480.000
G1 X197.988 Y24.408 Z-0.000 F480.000
G1 X197.946 Y24.640 Z-0.000 F480.000
G1 X197.915 Y24.876 Z-0.000 F480.000
G1 X197.897 Y25.118 Z-0.000 F480.000
G1 X197.891 Y25.366 Z-0.000 F480.000
G1 X201.203 Y25.366 Z-0.000 F480.000
G1 X201.203 Y25.366 Z-0.000 F480.000
G1 X201.209 Y25.227 Z-0.000 F480.000
G1 X201.225 Y25.092 Z-0.000 F480.000
G1 X201.251 Y24.961 Z-0.000 F480.000
G1 X201.288 Y24.833 Z-0.000 F480.000
G1 X201.336 Y24.709 Z-0.000 F480.000
G1 X201.395 Y24.589 Z-0.000 F480.000
G1 X201.464 Y24.473 Z-0.000 F480.000
G1 X201.543 Y24.361 Z-0.000 F480.000
G1 X201.634 Y24.252 Z-0.000 F480.000
G1 X201.735 Y24.147 Z-0.000 F480.000
G1 X201.735 Y24.147 Z-0.000 F480.000
G1 X201.843 Y24.052 Z-0.000 F480.000
G1 X201.956 Y23.967 Z-0.000 F480.000
G1 X202.074 Y23.892 Z-0.000 F480.000
G1 X202.197 Y23.827 Z-0.000 F480.000
G1 X202.324 Y23.772 Z-0.000 F480.000
G1 X202.456 Y23.727 Z-0.000 F480.000
G1 X202.593 Y23.692 Z-0.000 F480.000
G1 X202.735 Y23.667 Z-0.000 F480.000
G1 X202.881 Y23.652 Z-0.000 F480.000
G1 X203.031 Y23.647 Z-0.000 F480.000
G1 X203.031 Y23.647 Z-0.000 F480.000
G1 X203.203 Y23.652 Z-0.000 F480.000
G1 X203.367 Y23.667 Z-0.000 F480.000
G1 X203.524 Y23.692 Z-0.000 F480.000
G1 X203.674 Y23.727 Z-0.000 F480.000
G1 X203.817 Y23.772 Z-0.000 F480.000
G1 X203.952 Y23.827 Z-0.000 F480.000
G1 X204.080 Y23.892 Z-0.000 F480.000
G1 X204.201 Y23.967 Z-0.000 F480.000
G1 X204.315 Y24.052 Z-0.000 F480.000
G1 X204.422 Y24.147 Z-0.000 F480.000
G1 X204.422 Y24.147 Z-0.000 F480.000
G1 X204.520 Y24.253 Z-0.000 F480.000
G1 X204.608 Y24.365 Z-0.000 F480.000
G1 X204.685 Y24.483 Z-0.000 F480.000
G1 X204.752 Y24.607 Z-0.000 F480.000
G1 X204.809 Y24.737 Z-0.000 F480.000
G1 X204.855 Y24.873 Z-0.000 F480.000
G1 X204.891 Y25.014 Z-0.000 F480.000
G1 X204.917 Y25.162 Z-0.000 F480.000
G1 X204.933 Y25.315 Z-0.000 F480.000
G1 X204.938 Y25.475 Z-0.000 F480.000
G1 X204.938 Y25.475 Z-0.000 F480.000
G1 X204.932 Y25.693 Z-0.000 F480.000
G1 X204.916 Y25.899 Z-0.000 F480.000
G1 X204.888 Y26.091 Z-0.000 F480.000
G1 X204.850 Y26.270 Z-0.000 F480.000
G1 X204.801 Y26.436 Z-0.000 F480.000
G1 X204.741 Y26.589 Z-0.000 F480.000
G1 X204.670 Y26.728 Z-0.000 F480.000
G1 X204.588 Y26.855 Z-0.000 F480.000
G1 X204.495 Y26.968 Z-0.000 F480.000
G1 X204.391 Y27.069 Z-0.000 F480.000
G1 X204.391 Y27.069 Z-0.000 F480.000
G1 X204.280 Y27.161 Z-0.000 F480.000
G1 X204.162 Y27.243 Z-0.000 F480.000
G1 X204.035 Y27.316 Z-0.000 F480.000
G1 X203.901 Y27.379 Z-0.000 F480.000
G1 X203.758 Y27.432 Z-0.000 F480.000
G1 X203.607 Y27.476 Z-0.000 F480.000
G1 X203.448 Y27.510 Z-0.000 F480.000
G1 X203.281 Y27.534 Z-0.000 F480.000
G1 X203.105 Y27.548 Z-0.000 F480.000
G1 X202.922 Y27.553 Z-0.000 F480.000
G1 X201.313 Y27.553 Z-0.000 F480.000
G1 X201.313 Y30.053 Z-0.000 F480.000
G4 P10.000
G0 X201.313 Y30.053 Z3.000 F300.000
G0 X216.891 Y30.319 Z3.000 F1200.000
G0 X216.891 Y30.319 Z-0.000 F300.000
G1 X216.891 Y30.319 Z-0.000 F480.000
G1 X216.891 Y30.319 Z-0.000 F480.000
G1 X216.887 Y30.626 Z-0.000 F480.000
G1 X216.875 Y30.918 Z-0.000 F480.000
G1 X216.854 Y31.194 Z-0.000 F480.000
G1 X216.826 Y31.454 Z-0.000 F480.000
G1 X216.789 Y31.698 Z-0.000 F480.000
G1 X216.745 Y31.926 Z-0.000 F480.000
G1 X216.692 Y32.138 Z-0.000 F480.000
G1 X216.631 Y32.334 Z-0.000 F480.000
G1 X216.562 Y32.514 Z-0.000 F480.000
G1 X216.485 Y32.678 Z-0.000 F480.000
G1 X216.485 Y32.678 Z-0.000 F480.000
G1 X216.402 Y32.827 Z-0.000 F480.000
G1 X216.309 Y32.959 Z-0.000 F480.000
G1 X216.207 Y33.077 Z-0.000 F480.000
G1 X216.095 Y33.178 Z-0.000 F480.000
G1 X215.973 Y33.264 Z-0.000 F480.000
G1 X215.841 Y33.334 Z-0.000 F480.000
G1 X215.700 Y33.389 Z-0.000 F480.000
G1 X215.550 Y33.428 Z-0.000 F480.000
G1 X215.389 Y33.452 Z-0.000 F480.000
G1 X215.219 Y33.459 Z-0.000 F480.000
G1 X215.219 Y33.459 Z-0.000 F480.000
G1 X215.055 Y33.452 Z-0.000 F480.000
G1 X214.900 Y33.430 Z-0.000 F480.000
G1 X214.753 Y33.393 Z-0.000 F480.000
G1 X214.616 Y33.342 Z-0.000 F480.000
G1 X214.488 Y33.276 Z-0.000 F480.000
G1 X214.370 Y33.195 Z-0.000 F480.000
G1 X214.260 Y33.100 Z-0.000 F480.000
G1 X214.159 Y32.989 Z-0.000 F480.000
G1 X214.067 Y32.865 Z-0.000 F480.000
G1 X213.985 Y32.725 Z-0.000 F480.000
G1 X213.985 Y32.725 Z-0.000 F480.000
G1 X213.910 Y32.574 Z-0.000 F480.000
G1 X213.843 Y32.408 Z-0.000 F480.000
G1 X213.783 Y32.226 Z-0.000 F480.000
G1 X213.730 Y32.030 Z-0.000 F480.000
G1 X213.684 Y31.819 Z-0.000 F480.000
G1 X213.645 Y31.593 Z-0.000 F480.000
G1 X213.614 Y31.351 Z-0.000 F480.000
G1 X213.590 Y31.095 Z-0.000 F480.000
G1 X213.573 Y30.824 Z-0.000 F480.000
G1 X213.563 Y30.538 Z-0.000 F480.000
G1 X213.563 Y26.803 Z-0.000 F480.000
G1 X213.563 Y26.803 Z-0.000 F480.000
G1 X213.567 Y26.487 Z-0.000 F480.000
G1 X213.579 Y26.188 Z-0.000 F480.000
G1 X213.599 Y25.905 Z-0.000 F480.000
G1 X213.628 Y25.641 Z-0.000 F480.000
G1 X213.664 Y25.393 Z-0.000 F480.000
G1 X213.709 Y25.163 Z-0.000 F480.000
G1 X213.762 Y24.949 Z-0.000 F480.000
G1 X213.823 Y24.753 Z-0.000 F480.000
G1 X213.892 Y24.574 Z-0.000 F480.000
G1 X213.969 Y24.413 Z-0.000 F480.000
G1 X213.969 Y24.413 Z-0.000 F480.000
G1 X214.055 Y24.267 Z-0.000 F480.000
G1 X214.150 Y24.137 Z-0.000 F480.000
G1 X214.253 Y24.022 Z-0.000 F480.000
G1 X214.366 Y23.923 Z-0.000 F480.000
G1 X214.488 Y23.838 Z-0.000 F480.000
G1 X214.620 Y23.769 Z-0.000 F480.000
G1 X214.760 Y23.716 Z-0.000 F480.000
G1 X214.909 Y23.678 Z-0.000 F480.000
G1 X215.067 Y23.655 Z-0.000 F480.000
G1 X215.235 Y23.647 Z-0.000 F480.000
G1 X215.235 Y23.647 Z-0.000 F480.000
G1 X215.399 Y23.654 Z-0.000 F480.000
G1 X215.554 Y23.676 Z-0.000 F480.000
G1 X215.700 Y23.713 Z-0.000 F480.000
G1 X215.837 Y23.764 Z-0.000 F480.000
G1 X215.965 Y23.830 Z-0.000 F480.000
G1 X216.084 Y23.911 Z-0.000 F480.000
G1 X216.194 Y24.007 Z-0.000 F480.000
G1 X216.295 Y24.117 Z-0.000 F480.000
G1 X216.386 Y24.242 Z-0.000 F480.000
G1 X216.469 Y24.381 Z-0.000 F480.000
G1 X216.469 Y24.381 Z-0.000 F480.000
G1 X216.546 Y24.539 Z-0.000 F480.000
G1 X216.616 Y24.714 Z-0.000 F480.000
G1 X216.678 Y24.904 Z-0.000 F480.000
G1 X216.731 Y25.111 Z-0.000 F480.000
G1 X216.778 Y25.334 Z-0.000 F480.000
G1 X216.816 Y25.574 Z-0.000 F480.000
G1 X216.846 Y25.829 Z-0.000 F480.000
G1 X216.869 Y26.101 Z-0.000 F480.000
G1 X216.884 Y26.389 Z-0.000 F480.000
G1 X216.891 Y26.694 Z-0.000 F480.000
G1 X216.891 Y30.319 Z-0.000 F480.000
G4 P10.000
G0 X216.891 Y30.319 Z3.000 F300.000
G0 X220.188 Y27.225 Z3.000 F1200.000
G0 X220.188 Y27.225 Z-0.000 F300.000
G1 X220.188 Y27.225 Z-0.000 F480.000
G1 X220.188 Y27.225 Z-0.000 F480.000
G1 X220.175 Y26.648 Z-0.000 F480.000
G1 X220.136 Y26.098 Z-0.000 F480.000
G1 X220.071 Y25.574 Z-0.000 F480.000
G1 X219.980 Y25.078 Z-0.000 F480.000
G1 X219.863 Y24.608 Z-0.000 F480.000
G1 X219.721 Y24.165 Z-0.000 F480.000
G1 X219.552 Y23.749 Z-0.000 F480.000
G1 X219.358 Y23.360 Z-0.000 F480.000
G1 X219.137 Y22.998 Z-0.000 F480.000
G1 X218.891 Y22.663 Z-0.000 F480.000
G1 X218.891 Y22.663 Z-0.000 F480.000
G1 X218.621 Y22.357 Z-0.000 F480.000
G1 X218.330 Y22.083 Z-0.000 F480.000
G1 X218.017 Y21.842 Z-0.000 F480.000
G1 X217.683 Y21.633 Z-0.000 F480.000
G1 X217.328 Y21.455 Z-0.000 F480.000
G1 X216.952 Y21.311 Z-0.000 F480.000
G1 X216.555 Y21.198 Z-0.000 F480.000
G1 X216.136 Y21.118 Z-0.000 F480.000
G1 X215.696 Y21.069 Z-0.000 F480.000
G1 X215.235 Y21.053 Z-0.000 F480.000
G1 X215.235 Y21.053 Z-0.000 F480.000
G1 X214.770 Y21.069 Z-0.000 F480.000
G1 X214.328 Y21.118 Z-0.000 F480.000
G1 X213.907 Y21.198 Z-0.000 F480.000
G1 X213.507 Y21.311 Z-0.000 F480.000
G1 X213.129 Y21.455 Z-0.000 F480.000
G1 X212.773 Y21.633 Z-0.000 F480.000
G1 X212.438 Y21.842 Z-0.000 F480.000
G1 X212.125 Y22.083 Z-0.000 F480.000
G1 X211.833 Y22.357 Z-0.000 F480.000
G1 X211.563 Y22.663 Z-0.000 F480.000
G1 X211.563 Y22.663 Z-0.000 F480.000
G1 X211.316 Y23.001 Z-0.000 F480.000
G1 X211.096 Y23.365 Z-0.000 F480.000
G1 X210.901 Y23.756 Z-0.000 F480.000
G1 X210.733 Y24.173 Z-0.000 F480.000
G1 X210.590 Y24.616 Z-0.000 F480.000
G1 X210.473 Y25.085 Z-0.000 F480.000
G1 X210.383 Y25.581 Z-0.000 F480.000
G1 X210.318 Y26.103 Z-0.000 F480.000
G1 X210.279 Y26.651 Z-0.000 F480.000
G1 X210.266 Y27.225 Z-0.000 F480.000
G1 X210.266 Y29.881 Z-0.000 F480.000
G1 X210.266 Y29.881 Z-0.000 F480.000
G1 X210.279 Y30.458 Z-0.000 F480.000
G1 X210.318 Y31.009 Z-0.000 F480.000
G1 X210.383 Y31.532 Z-0.000 F480.000
G1 X210.473 Y32.029 Z-0.000 F480.000
G1 X210.590 Y32.498 Z-0.000 F480.000
G1 X210.733 Y32.941 Z-0.000 F480.000
G1 X210.901 Y33.357 Z-0.000 F480.000
G1 X211.096 Y33.746 Z-0.000 F480.000
G1 X211.316 Y34.108 Z-0.000 F480.000
G1 X211.563 Y34.444 Z-0.000 F480.000
G1 X211.563 Y34.444 Z-0.000 F480.000
G1 X211.833 Y34.750 Z-0.000 F480.000
G1 X212.124 Y35.023 Z-0.000 F480.000
G1 X212.436 Y35.265 Z-0.000 F480.000
G1 X212.770 Y35.474 Z-0.000 F480.000
G1 X213.125 Y35.651 Z-0.000 F480.000
G1 X213.501 Y35.796 Z-0.000 F480.000
G1 X213.899 Y35.908 Z-0.000 F480.000
G1 X214.318 Y35.989 Z-0.000 F480.000
G1 X214.758 Y36.037 Z-0.000 F480.000
G1 X215.219 Y36.053 Z-0.000 F480.000
G1 X215.219 Y36.053 Z-0.000 F480.000
G1 X215.680 Y36.037 Z-0.000 F480.000
G1 X216.120 Y35.988 Z-0.000 F480.000
G1 X216.539 Y35.907 Z-0.000 F480.000
G1 X216.936 Y35.793 Z-0.000 F480.000
G1 X217.313 Y35.647 Z-0.000 F480.000
G1 X217.668 Y35.468 Z-0.000 F480.000
G1 X218.001 Y35.257 Z-0.000 F480.000
G1 X218.314 Y35.013 Z-0.000 F480.000
G1 X218.605 Y34.737 Z-0.000 F480.000
G1 X218.875 Y34.428 Z-0.000 F480.000
G1 X218.875 Y34.428 Z-0.000 F480.000
G1 X219.125 Y34.093 Z-0.000 F480.000
G1 X219.348 Y33.731 Z-0.000 F480.000
G1 X219.545 Y33.342 Z-0.000 F480.000
G1 X219.715 Y32.926 Z-0.000 F480.000
G1 X219.860 Y32.483 Z-0.000 F480.000
G1 X219.978 Y32.013 Z-0.000 F480.000
G1 X220.070 Y31.517 Z-0.000 F480.000
G1 X220.135 Y30.993 Z-0.000 F480.000
G1 X220.175 Y30.443 Z-0.000 F480.000
G1 X220.188 Y29.866 Z-0.000 F480.000
G1 X220.188 Y27.225 Z-0.000 F480.000
G4 P10.000
G0 X220.188 Y27.225 Z3.000 F300.000
G0 X40.386 Y50.162 Z0.000 F300.000
G0 X40.386 Y50.162 Z-0.000 F1200.000
G1 X40.386 Y50.162 Z-0.000 F480.000
G1 X40.257 Y51.766 Z-0.000 F480.000
G1 X39.872 Y53.329 Z-0.000 F480.000
G1 X39.241 Y54.809 Z-0.000 F480.000
G1 X38.381 Y56.169 Z-0.000 F480.000
G1 X37.313 Y57.374 Z-0.000 F480.000
G1 X36.067 Y58.392 Z-0.000 F480.000
G1 X34.673 Y59.196 Z-0.000 F480.000
G1 X33.168 Y59.767 Z-0.000 F480.000
G1 X31.592 Y60.089 Z-0.000 F480.000
G1 X29.984 Y60.154 Z-0.000 F480.000
G1 X28.386 Y59.960 Z-0.000 F480.000
G1 X26.840 Y59.512 Z-0.000 F480.000
G1 X25.386 Y58.822 Z-0.000 F480.000
G1 X24.062 Y57.908 Z-0.000 F480.000
G1 X22.901 Y56.793 Z-0.000 F480.000
G1 X21.934 Y55.507 Z-0.000 F480.000
G1 X21.186 Y54.082 Z-0.000 F480.000
G1 X20.677 Y52.555 Z-0.000 F480.000
G1 X20.419 Y50.967 Z-0.000 F480.000
G1 X20.419 Y49.357 Z-0.000 F480.000
G1 X20.677 Y47.769 Z-0.000 F480.000
G1 X21.186 Y46.242 Z-0.000 F480.000
G1 X21.934 Y44.817 Z-0.000 F480.000
G1 X22.901 Y43.531 Z-0.000 F480.000
G1 X24.062 Y42.416 Z-0.000 F480.000
G1 X25.386 Y41.502 Z-0.000 F480.000
G1 X26.840 Y40.812 Z-0.000 F480.000
G1 X28.386 Y40.364 Z-0.000 F480.000
G1 X29.984 Y40.170 Z-0.000 F480.000
G1 X31.592 Y40.235 Z-0.000 F480.000
G1 X33.168 Y40.557 Z-0.000 F480.000
G1 X34.673 Y41.127 Z-0.000 F480.000
G1 X36.067 Y41.932 Z-0.000 F480.000
G1 X37.313 Y42.950 Z-0.000 F480.000
G1 X38.381 Y44.155 Z-0.000 F480.000
G1 X39.241 Y45.515 Z-0.000 F480.000
G1 X39.872 Y46.995 Z-0.000 F480.000
G1 X40.257 Y48.558 Z-0.000 F480.000
G1 X40.386 Y50.162 Z-0.000 F480.000
G1 X40.386 Y50.162 Z-0.000 F480.000
G4 P10.000
G0 X40.386 Y50.162 Z3.000 F300.000
G0 X70.403 Y49.770 Z0.000 F300.000
G0 X70.403 Y49.770 Z-0.000 F1200.000
G1 X70.403 Y49.770 Z-0.000 F480.000
G1 X70.274 Y51.374 Z-0.000 F480.000
G1 X69.888 Y52.936 Z-0.000 F480.000
G1 X69.258 Y54.417 Z-0.000 F480.000
G1 X68.397 Y55.777 Z-0.000 F480.000
G1 X67.330 Y56.982 Z-0.000 F480.000
G1 X66.084 Y57.999 Z-0.000 F480.000
G1 X64.690 Y58.804 Z-0.000 F480.000
G1 X63.185 Y59.375 Z-0.000 F480.000
G1 X61.608 Y59.697 Z-0.000 F480.000
G1 X60.000 Y59.762 Z-0.000 F480.000
G1 X58.403 Y59.568 Z-0.000 F480.000
G1 X56.857 Y59.120 Z-0.000 F480.000
G1 X55.403 Y58.430 Z-0.000 F480.000
G1 X54.079 Y57.516 Z-0.000 F480.000
G1 X52.918 Y56.401 Z-0.000 F480.000
G1 X51.951 Y55.114 Z-0.000 F480.000
G1 X51.203 Y53.689 Z-0.000 F480.000
G1 X50.694 Y52.163 Z-0.000 F480.000
G1 X50.435 Y50.574 Z-0.000 F480.000
G1 X50.435 Y48.965 Z-0.000 F480.000
G1 X50.694 Y47.376 Z-0.000 F480.000
G1 X51.203 Y45.850 Z-0.000 F480.000
G1 X51.951 Y44.425 Z-0.000 F480.000
G1 X52.918 Y43.138 Z-0.000 F480.000
G1 X54.079 Y42.024 Z-0.000 F480.000
G1 X55.403 Y41.109 Z-0.000 F480.000
G1 X56.857 Y40.419 Z-0.000 F480.000
G1 X58.403 Y39.972 Z-0.000 F480.000
G1 X60.000 Y39.778 Z-0.000 F480.000
G1 X61.608 Y39.843 Z-0.000 F480.000
G1 X63.185 Y40.164 Z-0.000 F480.000
G1 X64.690 Y40.735 Z-0.000 F480.000
G1 X66.084 Y41.540 Z-0.000 F480.000
G1 X67.330 Y42.558 Z-0.000 F480.000
G1 X68.397 Y43.762 Z-0.000 F480.000
G1 X69.258 Y45.122 Z-0.000 F480.000
G1 X69.888 Y46.603 Z-0.000 F480.000
G1 X70.274 Y48.166 Z-0.000 F480.000
G1 X70.403 Y49.770 Z-0.000 F480.000
G1 X70.403 Y49.770 Z-0.000 F480.000
G4 P10.000
G0 X70.403 Y49.770 Z3.000 F300.000
G0 X70.403 Y49.770 Z3.000 F1200.000
G0 X70.403 Y49.770 Z-0.000 F300.000
G1 X70.403 Y49.770 Z-0.000 F480.000
G1 X70.274 Y51.374 Z-0.000 F480.000
G1 X69.888 Y52.936 Z-0.000 F480.000
G1 X69.258 Y54.417 Z-0.000 F480.000
G1 X68.397 Y55.777 Z-0.000 F480.000
G1 X67.330 Y56.982 Z-0.000 F480.000
G1 X66.084 Y57.999 Z-0.000 F480.000
G1 X64.690 Y58.804 Z-0.000 F480.000
G1 X63.185 Y59.375 Z-0.000 F480.000
G1 X61.608 Y59.697 Z-0.000 F480.000
G1 X60.000 Y59.762 Z-0.000 F480.000
G1 X58.403 Y59.568 Z-0.000 F480.000
G1 X56.857 Y59.120 Z-0.000 F480.000
G1 X55.403 Y58.430 Z-0.000 F480.000
G1 X54.079 Y57.516 Z-0.000 F480.000
G1 X52.918 Y56.401 Z-0.000 F480.000
G1 X51.951 Y55.114 Z-0.000 F480.000
G1 X51.203 Y53.689 Z-0.000 F480.000
G1 X50.694 Y52.163 Z-0.000 F480.000
G1 X50.435 Y50.574 Z-0.000 F480.000
G1 X50.435 Y48.965 Z-0.000 F480.000
G1 X50.694 Y47.376 Z-0.000 F480.000
G1 X51.203 Y45.850 Z-0.000 F480.000
G1 X51.951 Y44.425 Z-0.000 F480.000
G1 X52.918 Y43.138 Z-0.000 F480.000
G1 X54.079 Y42.024 Z-0.000 F480.000
G1 X55.403 Y41.109 Z-0.000 F480.000
G1 X56.857 Y40.419 Z-0.000 F480.000
G1 X58.403 Y39.972 Z-0.000 F480.000
G1 X60.000 Y39.778 Z-0.000 F480.000
G1 X61.608 Y39.843 Z-0.000 F480.000
G1 X63.185 Y40.164 Z-0.000 F480.000
G1 X64.690 Y40.735 Z-0.000 F480.000
G1 X66.084 Y41.540 Z-0.000 F480.000
G1 X67.330 Y42.558 Z-0.000 F480.000
G1 X68.397 Y43.762 Z-0.000 F480.000
G1 X69.258 Y45.122 Z-0.000 F480.000
G1 X69.888 Y46.603 Z-0.000 F480.000
G1 X70.274 Y48.166 Z-0.000 F480.000
G1 X70.403 Y49.770 Z-0.000 F480.000
G1 X70.403 Y49.770 Z-0.000 F480.000
G4 P10.000
G0 X70.403 Y49.770 Z3.000 F300.000
G0 X70.403 Y49.770 Z3.000 F1200.000
G0 X70.403 Y49.770 Z-0.000 F300.000
G1 X70.403 Y49.770 Z-0.000 F480.000
G1 X70.274 Y51.374 Z-0.000 F480.000
G1 X69.888 Y52.936 Z-0.000 F480.000
G1 X69.258 Y54.417 Z-0.000 F480.000
G1 X68.397 Y55.777 Z-0.000 F480.000
G1 X67.330 Y56.982 Z-0.000 F480.000
G1 X66.084 Y57.999 Z-0.000 F480.000
G1 X64.690 Y58.804 Z-0.000 F480.000
G1 X63.185 Y59.375 Z-0.000 F480.000
G1 X61.608 Y59.697 Z-0.000 F480.000
G1 X60.000 Y59.762 Z-0.000 F480.000
G1 X58.403 Y59.568 Z-0.000 F480.000
G1 X56.857 Y59.120 Z-0.000 F480.000
G1 X55.403 Y58.430 Z-0.000 F480.000
G1 X54.079 Y57.516 Z-0.000 F480.000
G1 X52.918 Y56.401 Z-0.000 F480.000
G1 X51.951 Y55.114 Z-0.000 F480.000
G1 X51.203 Y53.689 Z-0.000 F480.000
G1 X50.694 Y52.163 Z-0.000 F480.000
G1 X50.435 Y50.574 Z-0.000 F480.000
G1 X50.435 Y48.965 Z-0.000 F480.000
G1 X50.694 Y47.376 Z-0.000 F480.000
G1 X51.203 Y45.850 Z-0.000 F480.000
G1 X51.951 Y44.425 Z-0.000 F480.000
G1 X52.918 Y43.138 Z-0.000 F480.000
G1 X54.079 Y42.024 Z-0.000 F480.000
G1 X55.403 Y41.109 Z-0.000 F480.000
G1 X56.857 Y40.419 Z-0.000 F480.000
G1 X58.403 Y39.972 Z-0.000 F480.000
G1 X60.000 Y39.778 Z-0.000 F480.000
G1 X61.608 Y39.843 Z-0.000 F480.000
G1 X63.185 Y40.164 Z-0.000 F480.000
G1 X64.690 Y40.735 Z-0.000 F480.000
G1 X66.084 Y41.540 Z-0.000 F480.000
G1 X67.330 Y42.558 Z-0.000 F480.000
G1 X68.397 Y43.762 Z-0.000 F480.000
G1 X69.258 Y45.122 Z-0.000 F480.000
G1 X69.888 Y46.603 Z-0.000 F480.000
G1 X70.274 Y48.166 Z-0.000 F480.000
G1 X70.403 Y49.770 Z-0.000 F480.000
G1 X70.403 Y49.770 Z-0.000 F480.000
G4 P10.000
G0 X70.403 Y49.770 Z3.000 F300.000
G0 X70.403 Y49.770 Z3.000 F1200.000
G0 X70.403 Y49.770 Z-0.000 F300.000
G1 X70.403 Y49.770 Z-0.000 F480.000
G1 X70.274 Y51.374 Z-0.000 F480.000
G1 X69.888 Y52.936 Z-0.000 F480.000
G1 X69.258 Y54.417 Z-0.000 F480.000
G1 X68.397 Y55.777 Z-0.000 F480.000
G1 X67.330 Y56.982 Z-0.000 F480.000
G1 X66.084 Y57.999 Z-0.000 F480.000
G1 X64.690 Y58.804 Z-0.000 F480.000
G1 X63.185 Y59.375 Z-0.000 F480.000
G1 X61.608 Y59.697 Z-0.000 F480.000
G1 X60.000 Y59.762 Z-0.000 F480.000
G1 X58.403 Y59.568 Z-0.000 F480.000
G1 X56.857 Y59.120 Z-0.000 F480.000
G1 X55.403 Y58.430 Z-0.000 F480.000
G1 X54.079 Y57.516 Z-0.000 F480.000
G1 X52.918 Y56.401 Z-0.000 F480.000
G1 X51.951 Y55.114 Z-0.000 F480.000
G1 X51.203 Y53.689 Z-0.000 F480.000
G1 X50.694 Y52.163 Z-0.000 F480.000
G1 X50.435 Y50.574 Z-0.000 F480.000
G1 X50.435 Y48.965 Z-0.000 F480.000
G1 X50.694 Y47.376 Z-0.000 F480.000
G1 X51.203 Y45.850 Z-0.000 F480.000
G1 X51.951 Y44.425 Z-0.000 F480.000
G1 X52.918 Y43.138 Z-0.000 F480.000
G1 X54.079 Y42.024 Z-0.000 F480.000
G1 X55.403 Y41.109 Z-0.000 F480.000
G1 X56.857 Y40.419 Z-0.000 F480.000
G1 X58.403 Y39.972 Z-0.000 F480.000
G1 X60.000 Y39.778 Z-0.000 F480.000
G1 X61.608 Y39.843 Z-0.000 F480.000
G1 X63.185 Y40.164 Z-0.000 F480.000
G1 X64.690 Y40.735 Z-0.000 F480.000
G1 X66.084 Y41.540 Z-0.000 F480.000
G1 X67.330 Y42.558 Z-0.000 F480.000
G1 X68.397 Y43.762 Z-0.000 F480.000
G1 X69.258 Y45.122 Z-0.000 F480.000
G1 X69.888 Y46.603 Z-0.000 F480.000
G1 X70.274 Y48.166 Z-0.000 F480.000
G1 X70.403 Y49.770 Z-0.000 F480.000
G1 X70.403 Y49.770 Z-0.000 F480.000
G4 P10.000
G0 X70.403 Y49.770 Z3.000 F300.000
G0 X70.403 Y49.770 Z3.000 F1200.000
G0 X70.403 Y49.770 Z-0.000 F300.000
G1 X70.403 Y49.770 Z-0.000 F480.000
G1 X70.274 Y51.374 Z-0.000 F480.000
G1 X69.888 Y52.936 Z-0.000 F480.000
G1 X69.258 Y54.417 Z-0.000 F480.000
G1 X68.397 Y55.777 Z-0.000 F480.000
G1 X67.330 Y56.982 Z-0.000 F480.000
G1 X66.084 Y57.999 Z-0.000 F480.000
G1 X64.690 Y58.804 Z-0.000 F480.000
G1 X63.185 Y59.375 Z-0.000 F480.000
G1 X61.608 Y59.697 Z-0.000 F480.000
G1 X60.000 Y59.762 Z-0.000 F480.000
G1 X58.403 Y59.568 Z-0.000 F480.000
G1 X56.857 Y59.120 Z-0.000 F480.000
G1 X55.403 Y58.430 Z-0.000 F480.000
G1 X54.079 Y57.516 Z-0.000 F480.000
G1 X52.918 Y56.401 Z-0.000 F480.000
G1 X51.951 Y55.114 Z-0.000 F480.000
G1 X51.203 Y53.689 Z-0.000 F480.000
G1 X50.694 Y52.163 Z-0.000 F480.000
G1 X50.435 Y50.574 Z-0.000 F480.000
G1 X50.435 Y48.965 Z-0.000 F480.000
G1 X50.694 Y47.376 Z-0.000 F480.000
G1 X51.203 Y45.850 Z-0.000 F480.000
G1 X51.951 Y44.425 Z-0.000 F480.000
G1 X52.918 Y43.138 Z-0.000 F480.000
G1 X54.079 Y42.024 Z-0.000 F480.000
G1 X55.403 Y41.109 Z-0.000 F480.000
G1 X56.857 Y40.419 Z-0.000 F480.000
G1 X58.403 Y39.972 Z-0.000 F480.000
G1 X60.000 Y39.778 Z-0.000 F480.000
G1 X61.608 Y39.843 Z-0.000 F480.000
G1 X63.185 Y40.164 Z-0.000 F480.000
G1 X64.690 Y40.735 Z-0.000 F480.000
G1 X66.084 Y41.540 Z-0.000 F480.000
G1 X67.330 Y42.558 Z-0.000 F480.000
G1 X68.397 Y43.762 Z-0.000 F480.000
G1 X69.258 Y45.122 Z-0.000 F480.000
G1 X69.888 Y46.603 Z-0.000 F480.000
G1 X70.274 Y48.166 Z-0.000 F480.000
G1 X70.403 Y49.770 Z-0.000 F480.000
G1 X70.403 Y49.770 Z-0.000 F480.000
G4 P10.000
G0 X70.403 Y49.770 Z3.000 F300.000
G0 X100.272 Y50.102 Z0.000 F300.000
G0 X100.272 Y50.102 Z-0.000 F1200.000
G1 X100.272 Y50.102 Z-0.000 F480.000
G1 X100.143 Y51.707 Z-0.000 F480.000
G1 X99.758 Y53.269 Z-0.000 F480.000
G1 X99.127 Y54.750 Z-0.000 F480.000
G1 X98.267 Y56.110 Z-0.000 F480.000
G1 X97.200 Y57.314 Z-0.000 F480.000
G1 X95.953 Y58.332 Z-0.000 F480.000
G1 X94.559 Y59.137 Z-0.000 F480.000
G1 X93.055 Y59.708 Z-0.000 F480.000
G1 X91.478 Y60.030 Z-0.000 F480.000
G1 X89.870 Y60.094 Z-0.000 F480.000
G1 X88.272 Y59.900 Z-0.000 F480.000
G1 X86.726 Y59.453 Z-0.000 F480.000
G1 X85.272 Y58.763 Z-0.000 F480.000
G1 X83.948 Y57.848 Z-0.000 F480.000
G1 X82.787 Y56.734 Z-0.000 F480.000
G1 X81.821 Y55.447 Z-0.000 F480.000
G1 X81.073 Y54.022 Z-0.000 F480.000
G1 X80.563 Y52.496 Z-0.000 F480.000
G1 X80.305 Y50.907 Z-0.000 F480.000
G1 X80.305 Y49.298 Z-0.000 F480.000
G1 X80.563 Y47.709 Z-0.000 F480.000
G1 X81.073 Y46.183 Z-0.000 F480.000
G1 X81.821 Y44.758 Z-0.000 F480.000
G1 X82.787 Y43.471 Z-0.000 F480.000
G1 X83.948 Y42.356 Z-0.000 F480.000
G1 X85.272 Y41.442 Z-0.000 F480.000
G1 X86.726 Y40.752 Z-0.000 F480.000
G1 X88.272 Y40.305 Z-0.000 F480.000
G1 X89.870 Y40.111 Z-0.000 F480.000
G1 X91.478 Y40.175 Z-0.000 F480.000
G1 X93.055 Y40.497 Z-0.000 F480.000
G1 X94.559 Y41.068 Z-0.000 F480.000
G1 X95.953 Y41.873 Z-0.000 F480.000
G1 X97.200 Y42.890 Z-0.000 F480.000
G1 X98.267 Y44.095 Z-0.000 F480.000
G1 X99.127 Y45.455 Z-0.000 F480.000
G1 X99.758 Y46.936 Z-0.000 F480.000
G1 X100.143 Y48.498 Z-0.000 F480.000
G1 X100.272 Y50.102 Z-0.000 F480.000
G1 X100.272 Y50.102 Z-0.000 F480.000
G4 P10.000
G0 X100.272 Y50.102 Z3.000 F300.000
G0 X100.272 Y50.102 Z3.000 F1200.000
G0 X100.272 Y50.102 Z-0.000 F300.000
G1 X100.272 Y50.102 Z-0.000 F480.000
G1 X100.143 Y51.707 Z-0.000 F480.000
G1 X99.758 Y53.269 Z-0.000 F480.000
G1 X99.127 Y54.750 Z-0.000 F480.000
G1 X98.267 Y56.110 Z-0.000 F480.000
G1 X97.200 Y57.314 Z-0.000 F480.000
G1 X95.953 Y58.332 Z-0.000 F480.000
G1 X94.559 Y59.137 Z-0.000 F480.000
G1 X93.055 Y59.708 Z-0.000 F480.000
G1 X91.478 Y60.030 Z-0.000 F480.000
G1 X89.870 Y60.094 Z-0.000 F480.000
G1 X88.272 Y59.900 Z-0.000 F480.000
G1 X86.726 Y59.453 Z-0.000 F480.000
G1 X85.272 Y58.763 Z-0.000 F480.000
G1 X83.948 Y57.848 Z-0.000 F480.000
G1 X82.787 Y56.734 Z-0.000 F480.000
G1 X81.821 Y55.447 Z-0.000 F480.000
G1 X81.073 Y54.022 Z-0.000 F480.000
G1 X80.563 Y52.496 Z-0.000 F480.000
G1 X80.305 Y50.907 Z-0.000 F480.000
G1 X80.305 Y49.298 Z-0.000 F480.000
G1 X80.563 Y47.709 Z-0.000 F480.000
G1 X81.073 Y46.183 Z-0.000 F480.000
G1 X81.821 Y44.758 Z-0.000 F480.000
G1 X82.787 Y43.471 Z-0.000 F480.000
G1 X83.948 Y42.356 Z-0.000 F480.000
G1 X85.272 Y41.442 Z-0.000 F480.000
G1 X86.726 Y40.752 Z-0.000 F480.000
G1 X88.272 Y40.305 Z-0.000 F480.000
G1 X89.870 Y40.111 Z-0.000 F480.000
G1 X91.478 Y40.175 Z-0.000 F480.000
G1 X93.055 Y40.497 Z-0.000 F480.000
G1 X94.559 Y41.068 Z-0.000 F480.000
G1 X95.953 Y41.873 Z-0.000 F480.000
G1 X97.200 Y42.890 Z-0.000 F480.000
G1 X98.267 Y44.095 Z-0.000 F480.000
G1 X99.127 Y45.455 Z-0.000 F480.000
G1 X99.758 Y46.936 Z-0.000 F480.000
G1 X100.143 Y48.498 Z-0.000 F480.000
G1 X100.272 Y50.102 Z-0.000 F480.000
G1 X100.272 Y50.102 Z-0.000 F480.000
G4 P10.000
G0 X100.272 Y50.102 Z3.000 F300.000
G0 X100.272 Y50.102 Z3.000 F1200.000
G0 X100.272 Y50.102 Z-0.000 F300.000
G1 X100.272 Y50.102 Z-0.000 F480.000
G1 X100.143 Y51.707 Z-0.000 F480.000
G1 X99.758 Y53.269 Z-0.000 F480.000
G1 X99.127 Y54.750 Z-0.000 F480.000
G1 X98.267 Y56.110 Z-0.000 F480.000
G1 X97.200 Y57.314 Z-0.000 F480.000
G1 X95.953 Y58.332 Z-0.000 F480.000
G1 X94.559 Y59.137 Z-0.000 F480.000
G1 X93.055 Y59.708 Z-0.000 F480.000
G1 X91.478 Y60.030 Z-0.000 F480.000
G1 X89.870 Y60.094 Z-0.000 F480.000
G1 X88.272 Y59.900 Z-0.000 F480.000
G1 X86.726 Y59.453 Z-0.000 F480.000
G1 X85.272 Y58.763 Z-0.000 F480.000
G1 X83.948 Y57.848 Z-0.000 F480.000
G1 X82.787 Y56.734 Z-0.000 F480.000
G1 X81.821 Y55.447 Z-0.000 F480.000
G1 X81.073 Y54.022 Z-0.000 F480.000
G1 X80.563 Y52.496 Z-0.000 F480.000
G1 X80.305 Y50.907 Z-0.000 F480.000
G1 X80.305 Y49.298 Z-0.000 F480.000
G1 X80.563 Y47.709 Z-0.000 F480.000
G1 X81.073 Y46.183 Z-0.000 F480.000
G1 X81.821 Y44.758 Z-0.000 F480.000
G1 X82.787 Y43.471 Z-0.000 F480.000
G1 X83.948 Y42.356 Z-0.000 F480.000
G1 X85.272 Y41.442 Z-0.000 F480.000
G1 X86.726 Y40.752 Z-0.000 F480.000
G1 X88.272 Y40.305 Z-0.000 F480.000
G1 X89.870 Y40.111 Z-0.000 F480.000
G1 X91.478 Y40.175 Z-0.000 F480.000
G1 X93.055 Y40.497 Z-0.000 F480.000
G1 X94.559 Y41.068 Z-0.000 F480.000
G1 X95.953 Y41.873 Z-0.000 F480.000
G1 X97.200 Y42.890 Z-0.000 F480.000
G1 X98.267 Y44.095 Z-0.000 F480.000
G1 X99.127 Y45.455 Z-0.000 F480.000
G1 X99.758 Y46.936 Z-0.000 F480.000
G1 X100.143 Y48.498 Z-0.000 F480.000
G1 X100.272 Y50.102 Z-0.000 F480.000
G1 X100.272 Y50.102 Z-0.000 F480.000
G4 P10.000
G0 X100.272 Y50.102 Z3.000 F300.000
G0 X100.272 Y50.102 Z3.000 F1200.000
G0 X100.272 Y50.102 Z-0.000 F300.000
G1 X100.272 Y50.102 Z-0.000 F480.000
G1 X100.143 Y51.707 Z-0.000 F480.000
G1 X99.758 Y53.269 Z-0.000 F480.000
G1 X99.127 Y54.750 Z-0.000 F480.000
G1 X98.267 Y56.110 Z-0.000 F480.000
G1 X97.200 Y57.314 Z-0.000 F480.000
G1 X95.953 Y58.332 Z-0.000 F480.000
G1 X94.559 Y59.137 Z-0.000 F480.000
G1 X93.055 Y59.708 Z-0.000 F480.000
G1 X91.478 Y60.030 Z-0.000 F480.000
G1 X89.870 Y60.094 Z-0.000 F480.000
G1 X88.272 Y59.900 Z-0.000 F480.000
G1 X86.726 Y59.453 Z-0.000 F480.000
G1 X85.272 Y58.763 Z-0.000 F480.000
G1 X83.948 Y57.848 Z-0.000 F480.000
G1 X82.787 Y56.734 Z-0.000 F480.000
G1 X81.821 Y55.447 Z-0.000 F480.000
G1 X81.073 Y54.022 Z-0.000 F480.000
G1 X80.563 Y52.496 Z-0.000 F480.000
G1 X80.305 Y50.907 Z-0.000 F480.000
G1 X80.305 Y49.298 Z-0.000 F480.000
G1 X80.563 Y47.709 Z-0.000 F480.000
G1 X81.073 Y46.183 Z-0.000 F480.000
G1 X81.821 Y44.758 Z-0.000 F480.000
G1 X82.787 Y43.471 Z-0.000 F480.000
G1 X83.948 Y42.356 Z-0.000 F480.000
G1 X85.272 Y41.442 Z-0.000 F480.000
G1 X86.726 Y40.752 Z-0.000 F480.000
G1 X88.272 Y40.305 Z-0.000 F480.000
G1 X89.870 Y40.111 Z-0.000 F480.000
G1 X91.478 Y40.175 Z-0.000 F480.000
G1 X93.055 Y40.497 Z-0.000 F480.000
G1 X94.559 Y41.068 Z-0.000 F480.000
G1 X95.953 Y41.873 Z-0.000 F480.000
G1 X97.200 Y42.890 Z-0.000 F480.000
G1 X98.267 Y44.095 Z-0.000 F480.000
G1 X99.127 Y45.455 Z-0.000 F480.000
G1 X99.758 Y46.936 Z-0.000 F480.000
G1 X100.143 Y48.498 Z-0.000 F480.000
G1 X100.272 Y50.102 Z-0.000 F480.000
G1 X100.272 Y50.102 Z-0.000 F480.000
G4 P10.000
G0 X100.272 Y50.102 Z3.000 F300.000
G0 X100.272 Y50.102 Z3.000 F1200.000
G0 X100.272 Y50.102 Z-0.000 F300.000
G1 X100.272 Y50.102 Z-0.000 F480.000
G1 X100.143 Y51.707 Z-0.000 F480.000
G1 X99.758 Y53.269 Z-0.000 F480.000
G1 X99.127 Y54.750 Z-0.000 F480.000
G1 X98.267 Y56.110 Z-0.000 F480.000
G1 X97.200 Y57.314 Z-0.000 F480.000
G1 X95.953 Y58.332 Z-0.000 F480.000
G1 X94.559 Y59.137 Z-0.000 F480.000
G1 X93.055 Y59.708 Z-0.000 F480.000
G1 X91.478 Y60.030 Z-0.000 F480.000
G1 X89.870 Y60.094 Z-0.000 F480.000
G1 X88.272 Y59.900 Z-0.000 F480.000
G1 X86.726 Y59.453 Z-0.000 F480.000
G1 X85.272 Y58.763 Z-0.000 F480.000
G1 X83.948 Y57.848 Z-0.000 F480.000
G1 X82.787 Y56.734 Z-0.000 F480.000
G1 X81.821 Y55.447 Z-0.000 F480.000
G1 X81.073 Y54.022 Z-0.000 F480.000
G1 X80.563 Y52.496 Z-0.000 F480.000
G1 X80.305 Y50.907 Z-0.000 F480.000
G1 X80.305 Y49.298 Z-0.000 F480.000
G1 X80.563 Y47.709 Z-0.000 F480.000
G1 X81.073 Y46.183 Z-0.000 F480.000
G1 X81.821 Y44.758 Z-0.000 F480.000
G1 X82.787 Y43.471 Z-0.000 F480.000
G1 X83.948 Y42.356 Z-0.000 F480.000
G1 X85.272 Y41.442 Z-0.000 F480.000
G1 X86.726 Y40.752 Z-0.000 F480.000
G1 X88.272 Y40.305 Z-0.000 F480.000
G1 X89.870 Y40.111 Z-0.000 F480.000
G1 X91.478 Y40.175 Z-0.000 F480.000
G1 X93.055 Y40.497 Z-0.000 F480.000
G1 X94.559 Y41.068 Z-0.000 F480.000
G1 X95.953 Y41.873 Z-0.000 F480.000
G1 X97.200 Y42.890 Z-0.000 F480.000
G1 X98.267 Y44.095 Z-0.000 F480.000
G1 X99.127 Y45.455 Z-0.000 F480.000
G1 X99.758 Y46.936 Z-0.000 F480.000
G1 X100.143 Y48.498 Z-0.000 F480.000
G1 X100.272 Y50.102 Z-0.000 F480.000
G1 X100.272 Y50.102 Z-0.000 F480.000
G4 P10.000
G0 X100.272 Y50.102 Z3.000 F300.000
G0 X100.272 Y50.102 Z3.000 F1200.000
G0 X100.272 Y50.102 Z-0.000 F300.000
G1 X100.272 Y50.102 Z-0.000 F480.000
G1 X100.143 Y51.707 Z-0.000 F480.000
G1 X99.758 Y53.269 Z-0.000 F480.000
G1 X99.127 Y54.750 Z-0.000 F480.000
G1 X98.267 Y56.110 Z-0.000 F480.000
G1 X97.200 Y57.314 Z-0.000 F480.000
G1 X95.953 Y58.332 Z-0.000 F480.000
G1 X94.559 Y59.137 Z-0.000 F480.000
G1 X93.055 Y59.708 Z-0.000 F480.000
G1 X91.478 Y60.030 Z-0.000 F480.000
G1 X89.870 Y60.094 Z-0.000 F480.000
G1 X88.272 Y59.900 Z-0.000 F480.000
G1 X86.726 Y59.453 Z-0.000 F480.000
G1 X85.272 Y58.763 Z-0.000 F480.000
G1 X83.948 Y57.848 Z-0.000 F480.000
G1 X82.787 Y56.734 Z-0.000 F480.000
G1 X81.821 Y55.447 Z-0.000 F480.000
G1 X81.073 Y54.022 Z-0.000 F480.000
G1 X80.563 Y52.496 Z-0.000 F480.000
G1 X80.305 Y50.907 Z-0.000 F480.000
G1 X80.305 Y49.298 Z-0.000 F480.000
G1 X80.563 Y47.709 Z-0.000 F480.000
G1 X81.073 Y46.183 Z-0.000 F480.000
G1 X81.821 Y44.758 Z-0.000 F480.000
G1 X82.787 Y43.471 Z-0.000 F480.000
G1 X83.948 Y42.356 Z-0.000 F480.000
G1 X85.272 Y41.442 Z-0.000 F480.000
G1 X86.726 Y40.752 Z-0.000 F480.000
G1 X88.272 Y40.305 Z-0.000 F480.000
G1 X89.870 Y40.111 Z-0.000 F480.000
G1 X91.478 Y40.175 Z-0.000 F480.000
G1 X93.055 Y40.497 Z-0.000 F480.000
G1 X94.559 Y41.068 Z-0.000 F480.000
G1 X95.953 Y41.873 Z-0.000 F480.000
G1 X97.200 Y42.890 Z-0.000 F480.000
G1 X98.267 Y44.095 Z-0.000 F480.000
G1 X99.127 Y45.455 Z-0.000 F480.000
G1 X99.758 Y46.936 Z-0.000 F480.000
G1 X100.143 Y48.498 Z-0.000 F480.000
G1 X100.272 Y50.102 Z-0.000 F480.000
G1 X100.272 Y50.102 Z-0.000 F480.000
G4 P10.000
G0 X100.272 Y50.102 Z3.000 F300.000
G0 X100.272 Y50.102 Z3.000 F1200.000
G0 X100.272 Y50.102 Z-0.000 F300.000
G1 X100.272 Y50.102 Z-0.000 F480.000
G1 X100.143 Y51.707 Z-0.000 F480.000
G1 X99.758 Y53.269 Z-0.000 F480.000
G1 X99.127 Y54.750 Z-0.000 F480.000
G1 X98.267 Y56.110 Z-0.000 F480.000
G1 X97.200 Y57.314 Z-0.000 F480.000
G1 X95.953 Y58.332 Z-0.000 F480.000
G1 X94.559 Y59.137 Z-0.000 F480.000
G1 X93.055 Y59.708 Z-0.000 F480.000
G1 X91.478 Y60.030 Z-0.000 F480.000
G1 X89.870 Y60.094 Z-0.000 F480.000
G1 X88.272 Y59.900 Z-0.000 F480.000
G1 X86.726 Y59.453 Z-0.000 F480.000
G1 X85.272 Y58.763 Z-0.000 F480.000
G1 X83.948 Y57.848 Z-0.000 F480.000
G1 X82.787 Y56.734 Z-0.000 F480.000
G1 X81.821 Y55.447 Z-0.000 F480.000
G1 X81.073 Y54.022 Z-0.000 F480.000
G1 X80.563 Y52.496 Z-0.000 F480.000
G1 X80.305 Y50.907 Z-0.000 F480.000
G1 X80.305 Y49.298 Z-0.000 F480.000
G1 X80.563 Y47.709 Z-0.000 F480.000
G1 X81.073 Y46.183 Z-0.000 F480.000
G1 X81.821 Y44.758 Z-0.000 F480.000
G1 X82.787 Y43.471 Z-0.000 F480.000
G1 X83.948 Y42.356 Z-0.000 F480.000
G1 X85.272 Y41.442 Z-0.000 F480.000
G1 X86.726 Y40.752 Z-0.000 F480.000
G1 X88.272 Y40.305 Z-0.000 F480.000
G1 X89.870 Y40.111 Z-0.000 F480.000
G1 X91.478 Y40.175 Z-0.000 F480.000
G1 X93.055 Y40.497 Z-0.000 F480.000
G1 X94.559 Y41.068 Z-0.000 F480.000
G1 X95.953 Y41.873 Z-0.000 F480.000
G1 X97.200 Y42.890 Z-0.000 F480.000
G1 X98.267 Y44.095 Z-0.000 F480.000
G1 X99.127 Y45.455 Z-0.000 F480.000
G1 X99.758 Y46.936 Z-0.000 F480.000
G1 X100.143 Y48.498 Z-0.000 F480.000
G1 X100.272 Y50.102 Z-0.000 F480.000
G1 X100.272 Y50.102 Z-0.000 F480.000
G4 P10.000
G0 X100.272 Y50.102 Z3.000 F300.000
G0 X100.272 Y50.102 Z3.000 F1200.000
G0 X100.272 Y50.102 Z-0.000 F300.000
G1 X100.272 Y50.102 Z-0.000 F480.000
G1 X100.143 Y51.707 Z-0.000 F480.000
G1 X99.758 Y53.269 Z-0.000 F480.000
G1 X99.127 Y54.750 Z-0.000 F480.000
G1 X98.267 Y56.110 Z-0.000 F480.000
G1 X97.200 Y57.314 Z-0.000 F480.000
G1 X95.953 Y58.332 Z-0.000 F480.000
G1 X94.559 Y59.137 Z-0.000 F480.000
G1 X93.055 Y59.708 Z-0.000 F480.000
G1 X91.478 Y60.030 Z-0.000 F480.000
G1 X89.870 Y60.094 Z-0.000 F480.000
G1 X88.272 Y59.900 Z-0.000 F480.000
G1 X86.726 Y59.453 Z-0.000 F480.000
G1 X85.272 Y58.763 Z-0.000 F480.000
G1 X83.948 Y57.848 Z-0.000 F480.000
G1 X82.787 Y56.734 Z-0.000 F480.000
G1 X81.821 Y55.447 Z-0.000 F480.000
G1 X81.073 Y54.022 Z-0.000 F480.000
G1 X80.563 Y52.496 Z-0.000 F480.000
G1 X80.305 Y50.907 Z-0.000 F480.000
G1 X80.305 Y49.298 Z-0.000 F480.000
G1 X80.563 Y47.709 Z-0.000 F480.000
G1 X81.073 Y46.183 Z-0.000 F480.000
G1 X81.821 Y44.758 Z-0.000 F480.000
G1 X82.787 Y43.471 Z-0.000 F480.000
G1 X83.948 Y42.356 Z-0.000 F480.000
G1 X85.272 Y41.442 Z-0.000 F480.000
G1 X86.726 Y40.752 Z-0.000 F480.000
G1 X88.272 Y40.305 Z-0.000 F480.000
G1 X89.870 Y40.111 Z-0.000 F480.000
G1 X91.478 Y40.175 Z-0.000 F480.000
G1 X93.055 Y40.497 Z-0.000 F480.000
G1 X94.559 Y41.068 Z-0.000 F480.000
G1 X95.953 Y41.873 Z-0.000 F480.000
G1 X97.200 Y42.890 Z-0.000 F480.000
G1 X98.267 Y44.095 Z-0.000 F480.000
G1 X99.127 Y45.455 Z-0.000 F480.000
G1 X99.758 Y46.936 Z-0.000 F480.000
G1 X100.143 Y48.498 Z-0.000 F480.000
G1 X100.272 Y50.102 Z-0.000 F480.000
G1 X100.272 Y50.102 Z-0.000 F480.000
G4 P10.000
G0 X100.272 Y50.102 Z3.000 F300.000
G0 X100.272 Y50.102 Z3.000 F1200.000
G0 X100.272 Y50.102 Z-0.000 F300.000
G1 X100.272 Y50.102 Z-0.000 F480.000
G1 X100.143 Y51.707 Z-0.000 F480.000
G1 X99.758 Y53.269 Z-0.000 F480.000
G1 X99.127 Y54.750 Z-0.000 F480.000
G1 X98.267 Y56.110 Z-0.000 F480.000
G1 X97.200 Y57.314 Z-0.000 F480.000
G1 X95.953 Y58.332 Z-0.000 F480.000
G1 X94.559 Y59.137 Z-0.000 F480.000
G1 X93.055 Y59.708 Z-0.000 F480.000
G1 X91.478 Y60.030 Z-0.000 F480.000
G1 X89.870 Y60.094 Z-0.000 F480.000
G1 X88.272 Y59.900 Z-0.000 F480.000
G1 X86.726 Y59.453 Z-0.000 F480.000
G1 X85.272 Y58.763 Z-0.000 F480.000
G1 X83.948 Y57.848 Z-0.000 F480.000
G1 X82.787 Y56.734 Z-0.000 F480.000
G1 X81.821 Y55.447 Z-0.000 F480.000
G1 X81.073 Y54.022 Z-0.000 F480.000
G1 X80.563 Y52.496 Z-0.000 F480.000
G1 X80.305 Y50.907 Z-0.000 F480.000
G1 X80.305 Y49.298 Z-0.000 F480.000
G1 X80.563 Y47.709 Z-0.000 F480.000
G1 X81.073 Y46.183 Z-0.000 F480.000
G1 X81.821 Y44.758 Z-0.000 F480.000
G1 X82.787 Y43.471 Z-0.000 F480.000
G1 X83.948 Y42.356 Z-0.000 F480.000
G1 X85.272 Y41.442 Z-0.000 F480.000
G1 X86.726 Y40.752 Z-0.000 F480.000
G1 X88.272 Y40.305 Z-0.000 F480.000
G1 X89.870 Y40.111 Z-0.000 F480.000
G1 X91.478 Y40.175 Z-0.000 F480.000
G1 X93.055 Y40.497 Z-0.000 F480.000
G1 X94.559 Y41.068 Z-0.000 F480.000
G1 X95.953 Y41.873 Z-0.000 F480.000
G1 X97.200 Y42.890 Z-0.000 F480.000
G1 X98.267 Y44.095 Z-0.000 F480.000
G1 X99.127 Y45.455 Z-0.000 F480.000
G1 X99.758 Y46.936 Z-0.000 F480.000
G1 X100.143 Y48.498 Z-0.000 F480.000
G1 X100.272 Y50.102 Z-0.000 F480.000
G1 X100.272 Y50.102 Z-0.000 F480.000
G4 P10.000
G0 X100.272 Y50.102 Z3.000 F300.000
G0 X100.272 Y50.102 Z3.000 F1200.000
G0 X100.272 Y50.102 Z-0.000 F300.000
G1 X100.272 Y50.102 Z-0.000 F480.000
G1 X100.143 Y51.707 Z-0.000 F480.000
G1 X99.758 Y53.269 Z-0.000 F480.000
G1 X99.127 Y54.750 Z-0.000 F480.000
G1 X98.267 Y56.110 Z-0.000 F480.000
G1 X97.200 Y57.314 Z-0.000 F480.000
G1 X95.953 Y58.332 Z-0.000 F480.000
G1 X94.559 Y59.137 Z-0.000 F480.000
G1 X93.055 Y59.708 Z-0.000 F480.000
G1 X91.478 Y60.030 Z-0.000 F480.000
G1 X89.870 Y60.094 Z-0.000 F480.000
G1 X88.272 Y59.900 Z-0.000 F480.000
G1 X86.726 Y59.453 Z-0.000 F480.000
G1 X85.272 Y58.763 Z-0.000 F480.000
G1 X83.948 Y57.848 Z-0.000 F480.000
G1 X82.787 Y56.734 Z-0.000 F480.000
G1 X81.821 Y55.447 Z-0.000 F480.000
G1 X81.073 Y54.022 Z-0.000 F480.000
G1 X80.563 Y52.496 Z-0.000 F480.000
G1 X80.305 Y50.907 Z-0.000 F480.000
G1 X80.305 Y49.298 Z-0.000 F480.000
G1 X80.563 Y47.709 Z-0.000 F480.000
G1 X81.073 Y46.183 Z-0.000 F480.000
G1 X81.821 Y44.758 Z-0.000 F480.000
G1 X82.787 Y43.471 Z-0.000 F480.000
G1 X83.948 Y42.356 Z-0.000 F480.000
G1 X85.272 Y41.442 Z-0.000 F480.000
G1 X86.726 Y40.752 Z-0.000 F480.000
G1 X88.272 Y40.305 Z-0.000 F480.000
G1 X89.870 Y40.111 Z-0.000 F480.000
G1 X91.478 Y40.175 Z-0.000 F480.000
G1 X93.055 Y40.497 Z-0.000 F480.000
G1 X94.559 Y41.068 Z-0.000 F480.000
G1 X95.953 Y41.873 Z-0.000 F480.000
G1 X97.200 Y42.890 Z-0.000 F480.000
G1 X98.267 Y44.095 Z-0.000 F480.000
G1 X99.127 Y45.455 Z-0.000 F480.000
G1 X99.758 Y46.936 Z-0.000 F480.000
G1 X100.143 Y48.498 Z-0.000 F480.000
G1 X100.272 Y50.102 Z-0.000 F480.000
G1 X100.272 Y50.102 Z-0.000 F480.000
G4 P10.000
G0 X100.272 Y50.102 Z3.000 F300.000
G0 X129.939 Y49.980 Z0.000 F300.000
G0 X129.939 Y49.980 Z-0.000 F1200.000
G1 X129.939 Y49.980 Z-0.000 F480.000
G1 X129.810 Y51.584 Z-0.000 F480.000
G1 X129.425 Y53.147 Z-0.000 F480.000
G1 X128.794 Y54.627 Z-0.000 F480.000
G1 X127.934 Y55.987 Z-0.000 F480.000
G1 X126.867 Y57.192 Z-0.000 F480.000
G1 X125.620 Y58.210 Z-0.000 F480.000
G1 X124.226 Y59.015 Z-0.000 F480.000
G1 X122.722 Y59.585 Z-0.000 F480.000
G1 X121.145 Y59.907 Z-0.000 F480.000
G1 X119.537 Y59.972 Z-0.000 F480.000
G1 X117.939 Y59.778 Z-0.000 F480.000
G1 X116.393 Y59.330 Z-0.000 F480.000
G1 X114.940 Y58.640 Z-0.000 F480.000
G1 X113.615 Y57.726 Z-0.000 F480.000
G1 X112.454 Y56.611 Z-0.000 F480.000
G1 X111.488 Y55.325 Z-0.000 F480.000
G1 X110.740 Y53.900 Z-0.000 F480.000
G1 X110.230 Y52.373 Z-0.000 F480.000
G1 X109.972 Y50.785 Z-0.000 F480.000
G1 X109.972 Y49.175 Z-0.000 F480.000
G1 X110.230 Y47.587 Z-0.000 F480.000
G1 X110.740 Y46.060 Z-0.000 F480.000
G1 X111.488 Y44.635 Z-0.000 F480.000
G1 X112.454 Y43.349 Z-0.000 F480.000
G1 X113.615 Y42.234 Z-0.000 F480.000
G1 X114.940 Y41.320 Z-0.000 F480.000
G1 X116.393 Y40.630 Z-0.000 F480.000
G1 X117.939 Y40.182 Z-0.000 F480.000
G1 X119.537 Y39.988 Z-0.000 F480.000
G1 X121.145 Y40.053 Z-0.000 F480.000
G1 X122.722 Y40.375 Z-0.000 F480.000
G1 X124.226 Y40.946 Z-0.000 F480.000
G1 X125.620 Y41.750 Z-0.000 F480.000
G1 X126.867 Y42.768 Z-0.000 F480.000
G1 X127.934 Y43.973 Z-0.000 F480.000
G1 X128.794 Y45.333 Z-0.000 F480.000
G1 X129.425 Y46.813 Z-0.000 F480.000
G1 X129.810 Y48.376 Z-0.000 F480.000
G1 X129.939 Y49.980 Z-0.000 F480.000
G1 X129.939 Y49.980 Z-0.000 F480.000
G4 P10.000
G0 X129.939 Y49.980 Z3.000 F300.000
G0 X129.939 Y49.980 Z3.000 F1200.000
G0 X129.939 Y49.980 Z-0.000 F300.000
G1 X129.939 Y49.980 Z-0.000 F480.000
G1 X129.810 Y51.584 Z-0.000 F480.000
G1 X129.425 Y53.147 Z-0.000 F480.000
G1 X128.794 Y54.627 Z-0.000 F480.000
G1 X127.934 Y55.987 Z-0.000 F480.000
G1 X126.867 Y57.192 Z-0.000 F480.000
G1 X125.620 Y58.210 Z-0.000 F480.000
G1 X124.226 Y59.015 Z-0.000 F480.000
G1 X122.722 Y59.585 Z-0.000 F480.000
G1 X121.145 Y59.907 Z-0.000 F480.000
G1 X119.537 Y59.972 Z-0.000 F480.000
G1 X117.939 Y59.778 Z-0.000 F480.000
G1 X116.393 Y59.330 Z-0.000 F480.000
G1 X114.940 Y58.640 Z-0.000 F480.000
G1 X113.615 Y57.726 Z-0.000 F480.000
G1 X112.454 Y56.611 Z-0.000 F480.000
G1 X111.488 Y55.325 Z-0.000 F480.000
G1 X110.740 Y53.900 Z-0.000 F480.000
G1 X110.230 Y52.373 Z-0.000 F480.000
G1 X109.972 Y50.785 Z-0.000 F480.000
G1 X109.972 Y49.175 Z-0.000 F480.000
G1 X110.230 Y47.587 Z-0.000 F480.000
G1 X110.740 Y46.060 Z-0.000 F480.000
G1 X111.488 Y44.635 Z-0.000 F480.000
G1 X112.454 Y43.349 Z-0.000 F480.000
G1 X113.615 Y42.234 Z-0.000 F480.000
G1 X114.940 Y41.320 Z-0.000 F480.000
G1 X116.393 Y40.630 Z-0.000 F480.000
G1 X117.939 Y40.182 Z-0.000 F480.000
G1 X119.537 Y39.988 Z-0.000 F480.000
G1 X121.145 Y40.053 Z-0.000 F480.000
G1 X122.722 Y40.375 Z-0.000 F480.000
G1 X124.226 Y40.946 Z-0.000 F480.000
G1 X125.620 Y41.750 Z-0.000 F480.000
G1 X126.867 Y42.768 Z-0.000 F480.000
G1 X127.934 Y43.973 Z-0.000 F480.000
G1 X128.794 Y45.333 Z-0.000 F480.000
G1 X129.425 Y46.813 Z-0.000 F480.000
G1 X129.810 Y48.376 Z-0.000 F480.000
G1 X129.939 Y49.980 Z-0.000 F480.000
G1 X129.939 Y49.980 Z-0.000 F480.000
G4 P10.000
G0 X129.939 Y49.980 Z3.000 F300.000
G0 X129.939 Y49.980 Z3.000 F1200.000
G0 X129.939 Y49.980 Z-0.000 F300.000
G1 X129.939 Y49.980 Z-0.000 F480.000
G1 X129.810 Y51.584 Z-0.000 F480.000
G1 X129.425 Y53.147 Z-0.000 F480.000
G1 X128.794 Y54.627 Z-0.000 F480.000
G1 X127.934 Y55.987 Z-0.000 F480.000
G1 X126.867 Y57.192 Z-0.000 F480.000
G1 X125.620 Y58.210 Z-0.000 F480.000
G1 X124.226 Y59.015 Z-0.000 F480.000
G1 X122.722 Y59.585 Z-0.000 F480.000
G1 X121.145 Y59.907 Z-0.000 F480.000
G1 X119.537 Y59.972 Z-0.000 F480.000
G1 X117.939 Y59.778 Z-0.000 F480.000
G1 X116.393 Y59.330 Z-0.000 F480.000
G1 X114.940 Y58.640 Z-0.000 F480.000
G1 X113.615 Y57.726 Z-0.000 F480.000
G1 X112.454 Y56.611 Z-0.000 F480.000
G1 X111.488 Y55.325 Z-0.000 F480.000
G1 X110.740 Y53.900 Z-0.000 F480.000
G1 X110.230 Y52.373 Z-0.000 F480.000
G1 X109.972 Y50.785 Z-0.000 F480.000
G1 X109.972 Y49.175 Z-0.000 F480.000
G1 X110.230 Y47.587 Z-0.000 F480.000
G1 X110.740 Y46.060 Z-0.000 F480.000
G1 X111.488 Y44.635 Z-0.000 F480.000
G1 X112.454 Y43.349 Z-0.000 F480.000
G1 X113.615 Y42.234 Z-0.000 F480.000
G1 X114.940 Y41.320 Z-0.000 F480.000
G1 X116.393 Y40.630 Z-0.000 F480.000
G1 X117.939 Y40.182 Z-0.000 F480.000
G1 X119.537 Y39.988 Z-0.000 F480.000
G1 X121.145 Y40.053 Z-0.000 F480.000
G1 X122.722 Y40.375 Z-0.000 F480.000
G1 X124.226 Y40.946 Z-0.000 F480.000
G1 X125.620 Y41.750 Z-0.000 F480.000
G1 X126.867 Y42.768 Z-0.000 F480.000
G1 X127.934 Y43.973 Z-0.000 F480.000
G1 X128.794 Y45.333 Z-0.000 F480.000
G1 X129.425 Y46.813 Z-0.000 F480.000
G1 X129.810 Y48.376 Z-0.000 F480.000
G1 X129.939 Y49.980 Z-0.000 F480.000
G1 X129.939 Y49.980 Z-0.000 F480.000
G4 P10.000
G0 X129.939 Y49.980 Z3.000 F300.000
G0 X129.939 Y49.980 Z3.000 F1200.000
G0 X129.939 Y49.980 Z-0.000 F300.000
